; filename = 1.3w
; machine = dv1JA0A000
; total_layers = 70
; total_filament = 3031.14
; extruder_filament = 3031.14:0.00
; extruder = 1
; dimension = 81.27:113.19:14.15
; Call_From_APP = XYZprint V2.0.2_2A13956
G21 ; set units to millimeters
M107
M108
M104 S200 ; set temperature
M109 S200 ; wait for temperature to be reached
M192 S198
M106 P1 S1
M106 P3 S1
M106 P4 S1
M191
G90 ; use absolute coordinates
G92 E0
M82 ; use absolute distances for extrusion
G1 F1800.000 E-5.00000
G92 E0
; Layer: 1 Time: 112
G1 Z0.350 F7200.000
; skirt start
G1 X3.000 Y56.000
G1 F1800.000 E5.00000
G1 X5.000 Y56.000 F600.000 E5.46245
G1 X5.000 Y156.000 E28.58519
G1 X3.000 Y156.000 E29.04765
G1 X3.000 Y56.788 E51.98667
; skirt end
; support material_start
; support material_end
; Region: 0
; perimeter_start
G1 F1800.000 E46.98667
G92 E0
G1 X45.488 Y53.938 F7200.000
G1 F1800.000 E5.00000
G1 X43.875 Y53.938 F600.000 E5.14936
G1 X43.875 Y52.700 E5.26347
G1 X45.488 Y52.700 E5.41283
G1 X45.488 Y53.613 E5.49755
G1 X45.900 Y53.800
G1 X53.763 Y53.788 E6.22523
G1 X54.725 Y54.175 E6.32037
; perimeter_end
; infill_start
G1 X44.875 Y53.313 F7200.000
G1 X44.500 Y53.325 F600.000 E6.35099
; infill_end
; perimeter_start
G1 F1800.000 E1.35099
G92 E0
G1 X44.513 Y60.213 F7200.000
G1 F1800.000 E5.00000
G1 X54.000 Y60.213 F600.000 E5.87799
G1 X54.000 Y63.238 E6.15855
G1 X44.513 Y63.238 E7.03654
G1 X44.513 Y60.525 E7.28771
G1 F1800.000 E2.28771
G92 E0
G1 X52.925 Y63.875 F7200.000
G1 F1800.000 E5.00000
G1 X43.875 Y63.875 F600.000 E5.83705
G1 X43.875 Y59.575 E6.23519
G1 X54.638 Y59.575 E7.23075
G1 X54.638 Y64.938 E7.72686
G1 X52.925 Y64.938 E7.88538
G1 X52.925 Y64.200 E7.95395
G1 X52.925 Y62.600
; perimeter_end
; infill_start
G1 X53.638 Y63.950 F7200.000
G1 X53.775 Y64.088 F600.000 E7.97803
G1 X53.638 Y64.213 E8.00069
G1 X53.788 Y64.088
G1 X53.938 Y64.225 E8.02467
G1 X53.550 Y60.950 F7200.000
G1 X53.263 Y60.675 F600.000 E8.06266
G1 X52.338 Y60.675 E8.14966
G1 X53.550 Y61.875 E8.31070
G1 X53.538 Y62.775 E8.39665
G1 X51.425 Y60.675 E8.67922
G1 X50.500 Y60.675 E8.76623
G1 X52.613 Y62.775 E9.04880
G1 X51.688 Y62.775 E9.13581
G1 X49.588 Y60.675 E9.41838
G1 X48.663 Y60.675 E9.50539
G1 X50.775 Y62.775 E9.78796
G1 X49.850 Y62.775 E9.87497
G1 X47.738 Y60.675 E10.15754
G1 X46.825 Y60.675 E10.24455
G1 X48.938 Y62.775 E10.52713
G1 X48.013 Y62.775 E10.61413
G1 X45.900 Y60.675 E10.89671
G1 X44.988 Y60.675 E10.98371
G1 X47.100 Y62.775 E11.26629
G1 X46.175 Y62.775 E11.35329
G1 X44.975 Y61.575 E11.51432
G1 X44.975 Y62.500 E11.60133
G1 X45.263 Y62.775 E11.63932
; infill_end
; perimeter_start
G1 F1800.000 E6.63932
G92 E0
G1 X45.488 Y69.825 F7200.000
G1 F1800.000 E5.00000
G1 X45.488 Y70.788 F600.000 E5.08880
G1 X43.875 Y70.788 E5.23816
G1 X43.875 Y69.175 E5.38752
G1 X54.475 Y69.175 E6.36836
G1 X53.825 Y69.825 E6.45400
G1 X45.813 Y69.825 E7.19554
G1 X44.525 Y69.825
; perimeter_end
; perimeter_start
G1 F1800.000 E2.19554
G92 E0
G1 X45.850 Y78.975 F7200.000
G1 F1800.000 E5.00000
G1 X45.850 Y80.213 F600.000 E5.11412
G1 X44.238 Y80.213 E5.26347
G1 X44.238 Y78.975 E5.37759
G1 X45.538 Y78.975 E5.49755
G1 F1800.000 E0.49755
G92 E0
G1 X55.075 Y80.450 F7200.000
G1 F1800.000 E5.00000
G1 X54.125 Y80.063 F600.000 E5.09515
G1 X46.263 Y80.075 E5.82282
; perimeter_end
; infill_start
G1 X45.238 Y79.600 F7200.000
G1 X44.850 Y79.600 F600.000 E5.85344
; infill_end
; perimeter_start
G1 F1800.000 E0.85344
G92 E0
G1 X44.875 Y86.488 F7200.000
G1 F1800.000 E5.00000
G1 X54.363 Y86.488 F600.000 E5.87799
G1 X54.363 Y89.525 E6.15855
G1 X44.875 Y89.525 E7.03654
G1 X44.875 Y86.800 E7.28771
G1 F1800.000 E2.28771
G92 E0
G1 X53.288 Y90.150 F7200.000
G1 F1800.000 E5.00000
G1 X44.238 Y90.150 F600.000 E5.83705
G1 X44.238 Y85.850 E6.23519
G1 X55.000 Y85.850 E7.23075
G1 X55.000 Y91.213 E7.72686
G1 X53.288 Y91.213 E7.88538
G1 X53.288 Y90.475 E7.95395
G1 X53.288 Y88.888
; perimeter_end
; infill_start
G1 X54.000 Y90.225 F7200.000
G1 X54.138 Y90.363 F600.000 E7.97803
G1 X54.000 Y90.500 E8.00069
G1 X54.150 Y90.363
G1 X54.288 Y90.500 E8.02467
G1 X53.900 Y87.225 F7200.000
G1 X53.625 Y86.950 F600.000 E8.06266
G1 X52.700 Y86.950 E8.14966
G1 X53.900 Y88.150 E8.31069
G1 X53.888 Y89.063 E8.39665
G1 X51.775 Y86.950 E8.67922
G1 X50.863 Y86.950 E8.76623
G1 X52.975 Y89.063 E9.04880
G1 X52.050 Y89.063 E9.13581
G1 X49.938 Y86.950 E9.41838
G1 X49.025 Y86.950 E9.50539
G1 X51.138 Y89.063 E9.78796
G1 X50.213 Y89.063 E9.87497
G1 X48.100 Y86.950 E10.15754
G1 X47.188 Y86.950 E10.24455
G1 X49.300 Y89.063 E10.52712
G1 X48.375 Y89.063 E10.61413
G1 X46.263 Y86.950 E10.89671
G1 X45.338 Y86.950 E10.98371
G1 X47.450 Y89.063 E11.26629
G1 X46.538 Y89.063 E11.35329
G1 X45.338 Y87.850 E11.51432
G1 X45.338 Y88.775 E11.60133
G1 X45.613 Y89.063 E11.63932
; infill_end
; perimeter_start
G1 F1800.000 E6.63932
G92 E0
G1 X45.850 Y96.100 F7200.000
G1 F1800.000 E5.00000
G1 X45.850 Y97.063 F600.000 E5.08880
G1 X44.238 Y97.063 E5.23816
G1 X44.238 Y95.450 E5.38752
G1 X54.838 Y95.450 E6.36836
G1 X54.188 Y96.100 E6.45400
G1 X46.163 Y96.100 E7.19554
G1 X44.888 Y96.100
; perimeter_end
; perimeter_start
G1 F1800.000 E2.19554
G92 E0
G1 X46.800 Y106.288 F7200.000
G1 F1800.000 E5.00000
G1 X46.800 Y107.513 F600.000 E5.11412
G1 X45.188 Y107.513 E5.26347
G1 X45.188 Y106.288 E5.37759
G1 X46.488 Y106.288 E5.49755
G1 X47.213 Y107.375 F7200.000
G1 X55.075 Y107.375 F600.000 E6.22523
G1 X56.025 Y107.750 E6.32037
; perimeter_end
; infill_start
G1 X46.188 Y106.900 F7200.000
G1 X45.800 Y106.900 F600.000 E6.35099
; infill_end
; perimeter_start
G1 F1800.000 E1.35099
G92 E0
G1 X55.313 Y113.788 F7200.000
G1 F1800.000 E5.00000
G1 X55.313 Y116.825 F600.000 E5.28057
G1 X45.825 Y116.825 E6.15855
G1 X45.825 Y113.788 E6.43912
G1 X55.000 Y113.788 E7.28771
G1 F1800.000 E2.28771
G92 E0
G1 X54.238 Y117.463 F7200.000
G1 F1800.000 E5.00000
G1 X45.188 Y117.463 F600.000 E5.83705
G1 X45.188 Y113.150 E6.23519
G1 X55.950 Y113.150 E7.23075
G1 X55.950 Y118.513 E7.72686
G1 X54.238 Y118.513 E7.88538
G1 X54.238 Y117.775 E7.95395
G1 X54.238 Y116.188
; perimeter_end
; infill_start
G1 X54.950 Y117.538 F7200.000
G1 X55.088 Y117.675 F600.000 E7.97803
G1 X54.950 Y117.800 E8.00069
G1 X55.100 Y117.675
G1 X55.238 Y117.813 E8.02467
G1 X54.850 Y114.538 F7200.000
G1 X54.575 Y114.250 F600.000 E8.06266
G1 X53.650 Y114.250 E8.14966
G1 X54.850 Y115.450 E8.31070
G1 X54.838 Y116.363 E8.39665
G1 X52.738 Y114.250 E8.67922
G1 X51.813 Y114.250 E8.76623
G1 X53.925 Y116.363 E9.04880
G1 X53.000 Y116.363 E9.13581
G1 X50.888 Y114.250 E9.41838
G1 X49.975 Y114.250 E9.50539
G1 X52.088 Y116.363 E9.78796
G1 X51.163 Y116.363 E9.87497
G1 X49.050 Y114.250 E10.15754
G1 X48.138 Y114.250 E10.24455
G1 X50.250 Y116.363 E10.52713
G1 X49.325 Y116.363 E10.61413
G1 X47.213 Y114.250 E10.89671
G1 X46.300 Y114.250 E10.98371
G1 X48.413 Y116.363 E11.26629
G1 X47.488 Y116.363 E11.35329
G1 X46.288 Y115.163 E11.51432
G1 X46.288 Y116.075 E11.60133
G1 X46.563 Y116.363 E11.63932
; infill_end
; perimeter_start
G1 F1800.000 E6.63932
G92 E0
G1 X46.800 Y123.413 F7200.000
G1 F1800.000 E5.00000
G1 X46.800 Y124.363 F600.000 E5.08880
G1 X45.188 Y124.363 E5.23816
G1 X45.188 Y122.750 E5.38752
G1 X55.788 Y122.750 E6.36836
G1 X55.138 Y123.413 E6.45400
G1 X47.125 Y123.413 E7.19554
G1 X45.838 Y123.413
; perimeter_end
; perimeter_start
G1 F1800.000 E2.19554
G92 E0
G1 X56.213 Y139.338 F7200.000
G1 F1800.000 E5.00000
G1 X56.213 Y142.375 F600.000 E5.28057
G1 X46.713 Y142.375 E6.15855
G1 X46.713 Y139.338 E6.43912
G1 X55.888 Y139.338 E7.28771
G1 F1800.000 E2.28771
G92 E0
G1 X55.125 Y143.000 F7200.000
G1 F1800.000 E5.00000
G1 X46.075 Y143.000 F600.000 E5.83705
G1 X46.075 Y138.700 E6.23519
G1 X56.850 Y138.700 E7.23075
G1 X56.850 Y144.063 E7.72686
G1 X55.125 Y144.063 E7.88538
G1 X55.125 Y143.325 E7.95395
G1 X55.125 Y141.738
; perimeter_end
; infill_start
G1 X55.838 Y143.075 F7200.000
G1 X55.975 Y143.213 F600.000 E7.97803
G1 X55.850 Y143.350 E8.00069
G1 X56.000 Y143.213
G1 X56.138 Y143.350 E8.02467
G1 X55.750 Y140.088 F7200.000
G1 X55.463 Y139.800 F600.000 E8.06266
G1 X54.550 Y139.800 E8.14966
G1 X55.750 Y141.000 E8.31070
G1 X55.738 Y141.913 E8.39665
G1 X53.625 Y139.800 E8.67922
G1 X52.700 Y139.800 E8.76623
G1 X54.813 Y141.913 E9.04880
G1 X53.900 Y141.913 E9.13581
G1 X51.788 Y139.800 E9.41838
G1 X50.863 Y139.800 E9.50539
G1 X52.975 Y141.913 E9.78796
G1 X52.063 Y141.913 E9.87497
G1 X49.950 Y139.800 E10.15754
G1 X49.025 Y139.800 E10.24455
G1 X51.138 Y141.913 E10.52713
G1 X50.225 Y141.913 E10.61413
G1 X48.113 Y139.800 E10.89671
G1 X47.188 Y139.800 E10.98371
G1 X49.300 Y141.913 E11.26629
G1 X48.375 Y141.913 E11.35329
G1 X47.175 Y140.700 E11.51432
G1 X47.175 Y141.625 E11.60133
G1 X47.463 Y141.913 E11.63932
; infill_end
; perimeter_start
G1 F1800.000 E6.63932
G92 E0
G1 X47.700 Y148.950 F7200.000
G1 F1800.000 E5.00000
G1 X47.700 Y149.913 F600.000 E5.08880
G1 X46.075 Y149.913 E5.23816
G1 X46.075 Y148.300 E5.38752
G1 X56.688 Y148.300 E6.36836
G1 X56.025 Y148.950 E6.45400
G1 X48.013 Y148.950 E7.19554
G1 X46.738 Y148.950
; perimeter_end
; perimeter_start
G1 F1800.000 E2.19554
G92 E0
G1 X47.700 Y133.063 F7200.000
G1 F1800.000 E5.00000
G1 X46.075 Y133.063 F600.000 E5.14936
G1 X46.075 Y131.825 E5.26347
G1 X47.700 Y131.825 E5.41283
G1 X47.700 Y132.750 E5.49755
G1 X56.925 Y133.300 F7200.000
G1 X55.975 Y132.913 F600.000 E5.59270
G1 X48.100 Y132.925 E6.32037
; perimeter_end
; infill_start
G1 X47.075 Y132.450 F7200.000
G1 X46.700 Y132.450 F600.000 E6.35099
; infill_end
; perimeter_start
G1 F1800.000 E1.35099
G92 E0
G1 X77.400 Y104.438 F7200.000
G1 F1800.000 E5.00000
G1 X77.313 Y103.825 F600.000 E5.02847
G1 X77.363 Y103.450 E5.04625
G1 X77.400 Y103.225 E5.06763
G1 X78.963 Y103.225 E5.21218
G1 X79.000 Y103.350 E5.22473
G1 X79.050 Y103.825 E5.26927
G1 X78.963 Y104.438 E5.32621
G1 X78.713 Y104.438 E5.34888
G1 X77.713 Y104.438 E5.39512
; perimeter_end
; infill_start
G1 X77.950 Y103.825
G1 X78.400 Y103.825 E5.43057
; infill_end
; perimeter_start
G1 F1800.000 E0.43057
G92 E0
G1 X85.225 Y103.250 F7200.000
G1 F1800.000 E5.00000
G1 X85.225 Y104.413 F600.000 E5.10671
; perimeter_end
; perimeter_start
G1 F1800.000 E0.10671
G92 E0
G1 X89.675 Y103.225 F7200.000
G1 F1800.000 E5.00000
G1 X98.275 Y103.225 F600.000 E5.79483
G1 X98.363 Y103.825 E5.85177
G1 X98.275 Y104.438 E5.90871
G1 X89.675 Y104.438 E6.70354
G1 X89.675 Y103.538 E6.78682
G1 X90.775 Y103.863
; perimeter_end
; infill_start
G1 X90.288 Y103.825
G1 X97.713 Y103.825 E7.37368
; infill_end
; perimeter_start
G1 F1800.000 E2.37368
G92 E0
G1 X103.213 Y98.288 F7200.000
G1 F1800.000 E5.00000
G1 X103.125 Y97.675 F600.000 E5.02847
G1 X103.175 Y97.300 E5.04625
G1 X103.213 Y97.075 E5.06763
G1 X104.775 Y97.075 E5.21218
G1 X104.813 Y97.200 E5.22473
G1 X104.863 Y97.675 E5.26927
G1 X104.775 Y98.288 E5.32621
G1 X104.525 Y98.288 E5.34888
G1 X103.525 Y98.288 E5.39512
; perimeter_end
; infill_start
G1 X103.775 Y97.675
G1 X104.213 Y97.675 E5.43057
; infill_end
; perimeter_start
G1 F1800.000 E0.43057
G92 E0
G1 X111.038 Y97.100 F7200.000
G1 F1800.000 E5.00000
G1 X111.038 Y98.250 F600.000 E5.10671
; perimeter_end
; perimeter_start
G1 F1800.000 E0.10671
G92 E0
G1 X115.488 Y98.288 F7200.000
G1 F1800.000 E5.00000
G1 X115.488 Y97.075 F600.000 E5.11267
G1 X124.088 Y97.075 E5.90750
G1 X124.125 Y97.200 E5.92005
G1 X124.175 Y97.675 E5.96459
G1 X124.088 Y98.288 E6.02153
G1 X115.813 Y98.288 E6.78697
G1 X116.100 Y97.238
; perimeter_end
; infill_start
G1 X116.100 Y97.675
G1 X123.525 Y97.675 E7.37383
; infill_end
; perimeter_start
G1 F1800.000 E2.37383
G92 E0
G1 X114.113 Y72.138 F7200.000
G1 F1800.000 E5.00000
G1 X114.113 Y70.913 F600.000 E5.11267
G1 X122.700 Y70.913 E5.90750
G1 X122.750 Y71.050 E5.92005
G1 X122.800 Y71.525 E5.96459
G1 X122.700 Y72.138 E6.02153
G1 X114.425 Y72.138 E6.78697
G1 X114.725 Y71.075
; perimeter_end
; infill_start
G1 X114.725 Y71.525
G1 X122.150 Y71.525 E7.37383
; infill_end
; perimeter_start
G1 F1800.000 E2.37383
G92 E0
G1 X119.950 Y56.988 F7200.000
G1 F1800.000 E5.00000
G1 X103.338 Y56.988 F600.000 E6.53611
; perimeter_end
; perimeter_start
G1 F1800.000 E1.53611
G92 E0
G1 X102.213 Y37.938 F7200.000
G1 F1800.000 E5.00000
G1 X118.825 Y37.950 F600.000 E6.53611
; perimeter_end
; perimeter_start
G1 F1800.000 E1.53611
G92 E0
G1 X85.900 Y37.425 F7200.000
G1 F1800.000 E5.00000
G1 X69.288 Y37.425 F600.000 E6.53611
; perimeter_end
; perimeter_start
G1 F1800.000 E1.53611
G92 E0
G1 X68.338 Y52.075 F7200.000
G1 F1800.000 E5.00000
G1 X84.950 Y52.075 F600.000 E6.53611
; perimeter_end
; perimeter_start
G1 F1800.000 E1.53611
G92 E0
G1 X101.838 Y70.913 F7200.000
G1 F1800.000 E5.00000
G1 X102.838 Y70.913 F600.000 E5.04625
G1 X103.400 Y70.913 E5.09831
G1 X103.488 Y71.525 E5.15525
G1 X103.438 Y72.000 E5.19979
G1 X103.400 Y72.138 E5.21234
G1 X101.913 Y72.138 E5.34903
G1 X101.838 Y72.138 E5.35296
G1 X101.738 Y71.525 E5.38143
G1 X101.775 Y71.225 E5.39528
; perimeter_end
; infill_start
G1 X102.388 Y71.525
G1 X102.838 Y71.525 E5.43072
; infill_end
; perimeter_start
G1 F1800.000 E0.43072
G92 E0
G1 X109.650 Y70.950 F7200.000
G1 F1800.000 E5.00000
G1 X109.650 Y72.100 F600.000 E5.10671
; perimeter_end
; perimeter_start
G1 F1800.000 E0.10671
G92 E0
G1 X89.788 Y84.175 F7200.000
G1 F1800.000 E5.00000
G1 X89.788 Y82.963 F600.000 E5.11267
G1 X98.375 Y82.963 E5.90750
G1 X98.413 Y83.088 E5.92005
G1 X98.463 Y83.563 E5.96459
G1 X98.375 Y84.175 E6.02153
G1 X90.100 Y84.175 E6.78697
G1 X90.388 Y83.125
; perimeter_end
; infill_start
G1 X90.400 Y83.563
G1 X97.813 Y83.563 E7.37383
; infill_end
; perimeter_start
G1 F1800.000 E2.37383
G92 E0
G1 X85.325 Y84.150 F7200.000
G1 F1800.000 E5.00000
G1 X85.325 Y82.988 F600.000 E5.10671
; perimeter_end
; perimeter_start
G1 F1800.000 E0.10671
G92 E0
G1 X79.063 Y84.175 F7200.000
G1 F1800.000 E5.00000
G1 X78.063 Y84.175 F600.000 E5.04625
G1 X77.500 Y84.175 E5.09831
G1 X77.413 Y83.563 E5.15525
G1 X77.463 Y83.088 E5.19979
G1 X77.500 Y82.963 E5.21234
G1 X78.975 Y82.963 E5.34903
G1 X79.063 Y82.963 E5.35296
G1 X79.150 Y83.563 E5.38143
G1 X79.125 Y83.863 E5.39528
; perimeter_end
; infill_start
G1 X78.513 Y83.563
G1 X78.063 Y83.563 E5.43072
; infill_end
G1 F1800.000 E0.43072
G92 E0
; Layer: 2 Time: 90
G1 Z0.550 F7200.000
; Region: 0
; perimeter_start
G1 X45.213 Y53.650
G1 F1800.000 E5.00000
G1 X44.163 Y53.650 F1200.000 E5.03494
G1 X44.163 Y52.988 E5.05720
G1 X45.213 Y52.988 E5.09214
G1 X45.213 Y53.450 E5.10775
G1 F1800.000 E0.10775
G92 E0
G1 X45.613 Y53.550 F7200.000
G1 F1800.000 E5.00000
G1 X53.875 Y53.550 F1200.000 E5.27494
G1 X54.388 Y54.050 E5.29889
G1 X43.763 Y54.050 E5.65232
G1 X43.763 Y52.588 E5.70119
G1 X45.613 Y52.588 E5.76273
G1 X45.613 Y53.350 E5.78802
G1 X45.613 Y54.350
; perimeter_end
; infill_start
G1 X45.713 Y53.850
G1 X53.488 Y53.750 F600.000 E5.89917
G1 X44.875 Y53.313 F7200.000
G1 X44.500 Y53.325 F600.000 E5.90847
; infill_end
; perimeter_start
G1 F1800.000 E0.90847
G92 E0
G1 X53.213 Y63.600 F7200.000
G1 F1800.000 E5.00000
G1 X44.163 Y63.600 F1200.000 E5.30100
G1 X44.163 Y59.850 E5.42541
G1 X54.363 Y59.850 E5.76465
G1 X54.363 Y64.650 E5.92428
G1 X53.213 Y64.650 E5.96251
G1 X53.213 Y63.800 E5.99109
G1 F1800.000 E0.99109
G92 E0
G1 X52.813 Y64.000 F7200.000
G1 F1800.000 E5.00000
G1 X43.763 Y64.000 F1200.000 E5.30100
G1 X43.763 Y59.450 E5.45202
G1 X54.763 Y59.450 E5.81786
G1 X54.763 Y65.050 E6.00410
G1 X52.813 Y65.050 E6.06894
G1 X52.813 Y64.200 E6.09752
G1 X52.813 Y63.200
; perimeter_end
; infill_start
G1 X53.688 Y63.663
G1 X53.788 Y63.775 F600.000 E6.10465
G1 X53.875 Y63.675 E6.11139
G1 X53.788 Y63.575
G1 X53.788 Y64.075 E6.13719
G1 X54.013 Y64.325 E6.15446
G1 X54.063 Y63.113 F7200.000
G1 X53.875 Y63.300 F1800.000 E6.16411
G1 X53.250 Y63.300 E6.18662
G1 X54.063 Y62.488 E6.22811
G1 X54.063 Y61.875 E6.25063
G1 X52.638 Y63.300 E6.32396
G1 X52.013 Y63.300 E6.34648
G1 X54.063 Y61.250 E6.45165
G1 X54.063 Y60.638 E6.47417
G1 X51.400 Y63.300 E6.61118
G1 X50.775 Y63.300 E6.63370
G1 X53.925 Y60.150 E6.79559
G1 X53.313 Y60.150 E6.81811
G1 X50.163 Y63.300 E6.98000
G1 X49.538 Y63.300 E7.00252
G1 X52.688 Y60.150 E7.16441
G1 X52.075 Y60.150 E7.18693
G1 X48.925 Y63.300 E7.34882
G1 X48.300 Y63.300 E7.37134
G1 X51.450 Y60.150 E7.53323
G1 X50.838 Y60.150 E7.55575
G1 X47.688 Y63.300 E7.71764
G1 X47.063 Y63.300 E7.74016
G1 X50.213 Y60.150 E7.90205
G1 X49.600 Y60.150 E7.92457
G1 X46.450 Y63.300 E8.08646
G1 X45.825 Y63.300 E8.10898
G1 X48.975 Y60.150 E8.27087
G1 X48.350 Y60.150 E8.29339
G1 X45.213 Y63.300 E8.45528
G1 X44.588 Y63.300 E8.47780
G1 X47.738 Y60.150 E8.63969
G1 X47.113 Y60.150 E8.66221
G1 X44.450 Y62.813 E8.79923
G1 X44.450 Y62.200 E8.82174
G1 X46.500 Y60.150 E8.92692
G1 X45.875 Y60.150 E8.94943
G1 X44.450 Y61.575 E9.02277
G1 X44.450 Y60.963 E9.04528
G1 X45.263 Y60.150 E9.08677
G1 X44.638 Y60.150 E9.10929
G1 X44.450 Y60.338 E9.11893
; infill_end
; perimeter_start
G1 F1800.000 E4.11893
G92 E0
G1 X45.213 Y69.450 F7200.000
G1 F1800.000 E5.00000
G1 X45.213 Y70.500 F1200.000 E5.03494
G1 X44.163 Y70.500 E5.06988
G1 X44.163 Y69.450 E5.10481
G1 X45.013 Y69.450 E5.13310
G1 F1800.000 E0.13310
G92 E0
G1 X45.613 Y69.950 F7200.000
G1 F1800.000 E5.00000
G1 X45.613 Y70.900 F1200.000 E5.03193
G1 X43.763 Y70.900 E5.09348
G1 X43.763 Y69.050 E5.15503
G1 X54.763 Y69.050 E5.52112
G1 X53.875 Y69.950 E5.56300
G1 X45.813 Y69.950 E5.83128
G1 X44.813 Y69.950
; perimeter_end
; infill_start
G1 X45.438 Y69.500
G1 X53.688 Y69.513 F600.000 E6.14683
G1 X54.213 Y69.300 E6.16862
G1 X44.600 Y69.900 F7200.000
G1 X44.688 Y69.975 F600.000 E6.17387
G1 X44.600 Y70.063 E6.17880
; infill_end
; perimeter_start
G1 F1800.000 E1.17880
G92 E0
G1 X44.513 Y79.938 F7200.000
G1 F1800.000 E5.00000
G1 X44.513 Y79.263 F1200.000 E5.02227
G1 X45.563 Y79.263 E5.05720
G1 X45.563 Y79.938 E5.07947
G1 X44.713 Y79.938 E5.10775
G1 F1800.000 E0.10775
G92 E0
G1 X45.963 Y79.825 F7200.000
G1 F1800.000 E5.00000
G1 X54.238 Y79.825 F1200.000 E5.27494
G1 X54.738 Y80.338 E5.29889
G1 X44.113 Y80.338 E5.65232
G1 X44.113 Y78.863 E5.70119
G1 X45.963 Y78.863 E5.76273
G1 X45.963 Y79.625 E5.78802
G1 X45.963 Y80.625
; perimeter_end
; infill_start
G1 X46.063 Y80.125
G1 X53.850 Y80.025 F600.000 E5.89917
G1 X45.225 Y79.600 F7200.000
G1 X44.850 Y79.600 F600.000 E5.90847
; infill_end
; perimeter_start
G1 F1800.000 E0.90847
G92 E0
G1 X53.563 Y89.875 F7200.000
G1 F1800.000 E5.00000
G1 X44.513 Y89.875 F1200.000 E5.30100
G1 X44.513 Y86.138 E5.42541
G1 X54.713 Y86.138 E5.76465
G1 X54.713 Y90.938 E5.92428
G1 X53.563 Y90.938 E5.96251
G1 X53.563 Y90.075 E5.99109
G1 F1800.000 E0.99109
G92 E0
G1 X53.163 Y90.275 F7200.000
G1 F1800.000 E5.00000
G1 X44.113 Y90.275 F1200.000 E5.30100
G1 X44.113 Y85.738 E5.45202
G1 X55.113 Y85.738 E5.81786
G1 X55.113 Y91.338 E6.00410
G1 X53.163 Y91.338 E6.06894
G1 X53.163 Y90.475 E6.09752
G1 X53.163 Y89.475
; perimeter_end
; infill_start
G1 X54.050 Y89.950
G1 X54.138 Y90.050 F600.000 E6.10465
G1 X54.238 Y89.950 E6.11139
G1 X54.138 Y89.850
G1 X54.138 Y90.363 E6.13719
G1 X54.375 Y90.600 E6.15446
G1 X54.425 Y89.388 F7200.000
G1 X54.238 Y89.575 F1800.000 E6.16411
G1 X53.613 Y89.575 E6.18662
G1 X54.425 Y88.775 E6.22811
G1 X54.425 Y88.150 E6.25063
G1 X53.000 Y89.575 E6.32396
G1 X52.375 Y89.575 E6.34648
G1 X54.425 Y87.538 E6.45165
G1 X54.425 Y86.913 E6.47417
G1 X51.763 Y89.575 E6.61118
G1 X51.138 Y89.575 E6.63370
G1 X54.288 Y86.425 E6.79559
G1 X53.663 Y86.425 E6.81811
G1 X50.525 Y89.575 E6.98000
G1 X49.900 Y89.575 E7.00252
G1 X53.050 Y86.425 E7.16441
G1 X52.425 Y86.425 E7.18693
G1 X49.288 Y89.575 E7.34882
G1 X48.663 Y89.575 E7.37134
G1 X51.813 Y86.425 E7.53323
G1 X51.188 Y86.425 E7.55575
G1 X48.050 Y89.575 E7.71764
G1 X47.425 Y89.575 E7.74016
G1 X50.575 Y86.425 E7.90205
G1 X49.950 Y86.425 E7.92457
G1 X46.813 Y89.575 E8.08646
G1 X46.188 Y89.575 E8.10898
G1 X49.338 Y86.425 E8.27087
G1 X48.713 Y86.425 E8.29339
G1 X45.575 Y89.575 E8.45528
G1 X44.950 Y89.575 E8.47780
G1 X48.100 Y86.425 E8.63969
G1 X47.475 Y86.425 E8.66221
G1 X44.813 Y89.088 E8.79923
G1 X44.813 Y88.475 E8.82174
G1 X46.863 Y86.425 E8.92692
G1 X46.238 Y86.425 E8.94943
G1 X44.813 Y87.850 E9.02276
G1 X44.813 Y87.238 E9.04528
G1 X45.625 Y86.425 E9.08677
G1 X45.000 Y86.425 E9.10929
G1 X44.813 Y86.613 E9.11893
; infill_end
; perimeter_start
G1 F1800.000 E4.11893
G92 E0
G1 X45.563 Y96.788 F7200.000
G1 F1800.000 E5.00000
G1 X44.513 Y96.788 F1200.000 E5.03494
G1 X44.513 Y95.738 E5.06988
G1 X45.563 Y95.738 E5.10481
G1 X45.563 Y96.588 E5.13310
G1 F1800.000 E0.13310
G92 E0
G1 X45.963 Y96.225 F7200.000
G1 F1800.000 E5.00000
G1 X45.963 Y97.188 F1200.000 E5.03193
G1 X44.113 Y97.188 E5.09348
G1 X44.113 Y95.338 E5.15503
G1 X55.125 Y95.338 E5.52112
G1 X54.238 Y96.225 E5.56300
G1 X46.163 Y96.225 E5.83128
G1 X45.163 Y96.225
; perimeter_end
; infill_start
G1 X45.800 Y95.775
G1 X54.050 Y95.788 F600.000 E6.14683
G1 X54.575 Y95.575 E6.16862
G1 X44.963 Y96.175 F7200.000
G1 X45.038 Y96.263 F600.000 E6.17386
G1 X44.963 Y96.338 E6.17880
; infill_end
; perimeter_start
G1 F1800.000 E1.17880
G92 E0
G1 X46.525 Y106.563 F7200.000
G1 F1800.000 E5.00000
G1 X46.525 Y107.238 F1200.000 E5.02227
G1 X45.475 Y107.238 E5.05720
G1 X45.475 Y106.563 E5.07947
G1 X46.325 Y106.563 E5.10775
G1 F1800.000 E0.10775
G92 E0
G1 X46.925 Y107.125 F7200.000
G1 F1800.000 E5.00000
G1 X55.188 Y107.125 F1200.000 E5.27494
G1 X55.700 Y107.638 E5.29889
G1 X45.075 Y107.638 E5.65232
G1 X45.075 Y106.163 E5.70119
G1 X46.925 Y106.163 E5.76273
G1 X46.925 Y106.925 E5.78802
G1 X46.925 Y107.925
; perimeter_end
; infill_start
G1 X47.025 Y107.438
G1 X54.800 Y107.325 F600.000 E5.89917
G1 X46.188 Y106.900 F7200.000
G1 X45.813 Y106.900 F600.000 E5.90847
; infill_end
; perimeter_start
G1 F1800.000 E0.90847
G92 E0
G1 X54.525 Y117.175 F7200.000
G1 F1800.000 E5.00000
G1 X45.475 Y117.175 F1200.000 E5.30100
G1 X45.475 Y113.438 E5.42541
G1 X55.675 Y113.438 E5.76465
G1 X55.675 Y118.238 E5.92428
G1 X54.525 Y118.238 E5.96251
G1 X54.525 Y117.375 E5.99109
G1 F1800.000 E0.99109
G92 E0
G1 X54.125 Y117.575 F7200.000
G1 F1800.000 E5.00000
G1 X45.075 Y117.575 F1200.000 E5.30100
G1 X45.075 Y113.038 E5.45202
G1 X56.075 Y113.038 E5.81786
G1 X56.075 Y118.638 E6.00410
G1 X54.125 Y118.638 E6.06894
G1 X54.125 Y117.775 E6.09752
G1 X54.125 Y116.775
; perimeter_end
; infill_start
G1 X55.000 Y117.250
G1 X55.100 Y117.350 F600.000 E6.10465
G1 X55.188 Y117.250 E6.11139
G1 X55.088 Y117.150
G1 X55.100 Y117.663 E6.13719
G1 X55.325 Y117.913 E6.15446
G1 X55.375 Y116.688 F7200.000
G1 X55.188 Y116.875 F1800.000 E6.16411
G1 X54.563 Y116.875 E6.18662
G1 X55.375 Y116.075 E6.22811
G1 X55.375 Y115.450 E6.25063
G1 X53.950 Y116.875 E6.32396
G1 X53.325 Y116.875 E6.34648
G1 X55.375 Y114.838 E6.45165
G1 X55.375 Y114.213 E6.47417
G1 X52.713 Y116.875 E6.61118
G1 X52.088 Y116.875 E6.63370
G1 X55.238 Y113.738 E6.79559
G1 X54.613 Y113.738 E6.81811
G1 X51.475 Y116.875 E6.98000
G1 X50.850 Y116.875 E7.00252
G1 X54.000 Y113.738 E7.16441
G1 X53.375 Y113.738 E7.18693
G1 X50.238 Y116.875 E7.34882
G1 X49.613 Y116.875 E7.37134
G1 X52.763 Y113.738 E7.53323
G1 X52.138 Y113.738 E7.55575
G1 X49.000 Y116.875 E7.71764
G1 X48.375 Y116.875 E7.74016
G1 X51.525 Y113.738 E7.90205
G1 X50.900 Y113.738 E7.92457
G1 X47.763 Y116.875 E8.08646
G1 X47.138 Y116.875 E8.10898
G1 X50.288 Y113.738 E8.27087
G1 X49.663 Y113.738 E8.29339
G1 X46.525 Y116.875 E8.45528
G1 X45.900 Y116.875 E8.47780
G1 X49.050 Y113.738 E8.63969
G1 X48.425 Y113.738 E8.66221
G1 X45.763 Y116.400 E8.79923
G1 X45.763 Y115.775 E8.82174
G1 X47.813 Y113.738 E8.92692
G1 X47.188 Y113.738 E8.94943
G1 X45.763 Y115.163 E9.02277
G1 X45.763 Y114.538 E9.04528
G1 X46.575 Y113.738 E9.08677
G1 X45.950 Y113.738 E9.10929
G1 X45.763 Y113.925 E9.11893
; infill_end
; perimeter_start
G1 F1800.000 E4.11893
G92 E0
G1 X46.525 Y123.038 F7200.000
G1 F1800.000 E5.00000
G1 X46.525 Y124.088 F1200.000 E5.03494
G1 X45.475 Y124.088 E5.06988
G1 X45.475 Y123.038 E5.10481
G1 X46.325 Y123.038 E5.13310
G1 F1800.000 E0.13310
G92 E0
G1 X46.925 Y123.525 F7200.000
G1 F1800.000 E5.00000
G1 X46.925 Y124.488 F1200.000 E5.03193
G1 X45.075 Y124.488 E5.09348
G1 X45.075 Y122.638 E5.15503
G1 X56.075 Y122.638 E5.52112
G1 X55.188 Y123.525 E5.56300
G1 X47.125 Y123.525 E5.83128
G1 X46.125 Y123.525
; perimeter_end
; infill_start
G1 X46.750 Y123.075
G1 X55.000 Y123.088 F600.000 E6.14683
G1 X55.525 Y122.875 E6.16862
G1 X45.913 Y123.475 F7200.000
G1 X46.000 Y123.563 F600.000 E6.17387
G1 X45.913 Y123.638 E6.17880
; infill_end
; perimeter_start
G1 F1800.000 E1.17880
G92 E0
G1 X55.413 Y142.725 F7200.000
G1 F1800.000 E5.00000
G1 X46.363 Y142.725 F1200.000 E5.30100
G1 X46.363 Y138.988 E5.42541
G1 X56.563 Y138.988 E5.76465
G1 X56.563 Y143.788 E5.92428
G1 X55.413 Y143.788 E5.96251
G1 X55.413 Y142.925 E5.99109
G1 F1800.000 E0.99109
G92 E0
G1 X55.013 Y143.125 F7200.000
G1 F1800.000 E5.00000
G1 X45.963 Y143.125 F1200.000 E5.30100
G1 X45.963 Y138.588 E5.45202
G1 X56.963 Y138.588 E5.81786
G1 X56.963 Y144.188 E6.00410
G1 X55.013 Y144.188 E6.06894
G1 X55.013 Y143.325 E6.09752
G1 X55.013 Y142.325
; perimeter_end
; infill_start
G1 X55.888 Y142.800
G1 X55.988 Y142.900 F600.000 E6.10465
G1 X56.075 Y142.800 E6.11139
G1 X55.988 Y142.700
G1 X55.988 Y143.213 E6.13719
G1 X56.225 Y143.450 E6.15446
G1 X56.263 Y142.238 F7200.000
G1 X56.075 Y142.425 F1800.000 E6.16411
G1 X55.463 Y142.425 E6.18662
G1 X56.263 Y141.625 E6.22811
G1 X56.263 Y141.000 E6.25063
G1 X54.838 Y142.425 E6.32396
G1 X54.225 Y142.425 E6.34648
G1 X56.263 Y140.388 E6.45165
G1 X56.263 Y139.763 E6.47417
G1 X53.600 Y142.425 E6.61118
G1 X52.988 Y142.425 E6.63370
G1 X56.125 Y139.275 E6.79559
G1 X55.513 Y139.275 E6.81811
G1 X52.363 Y142.425 E6.98000
G1 X51.750 Y142.425 E7.00252
G1 X54.888 Y139.275 E7.16441
G1 X54.275 Y139.275 E7.18693
G1 X51.125 Y142.425 E7.34882
G1 X50.513 Y142.425 E7.37134
G1 X53.650 Y139.275 E7.53323
G1 X53.038 Y139.275 E7.55575
G1 X49.888 Y142.425 E7.71764
G1 X49.275 Y142.425 E7.74016
G1 X52.413 Y139.275 E7.90205
G1 X51.800 Y139.275 E7.92457
G1 X48.650 Y142.425 E8.08646
G1 X48.038 Y142.425 E8.10898
G1 X51.175 Y139.275 E8.27087
G1 X50.563 Y139.275 E8.29339
G1 X47.413 Y142.425 E8.45528
G1 X46.800 Y142.425 E8.47780
G1 X49.938 Y139.275 E8.63969
G1 X49.325 Y139.275 E8.66221
G1 X46.663 Y141.938 E8.79923
G1 X46.663 Y141.325 E8.82174
G1 X48.700 Y139.275 E8.92692
G1 X48.088 Y139.275 E8.94943
G1 X46.663 Y140.700 E9.02277
G1 X46.663 Y140.088 E9.04528
G1 X47.463 Y139.275 E9.08677
G1 X46.850 Y139.275 E9.10929
G1 X46.663 Y139.463 E9.11893
; infill_end
; perimeter_start
G1 F1800.000 E4.11893
G92 E0
G1 X46.363 Y148.588 F7200.000
G1 F1800.000 E5.00000
G1 X47.413 Y148.588 F1200.000 E5.03494
G1 X47.413 Y149.638 E5.06988
G1 X46.363 Y149.638 E5.10481
G1 X46.363 Y148.788 E5.13310
G1 F1800.000 E0.13310
G92 E0
G1 X47.813 Y149.075 F7200.000
G1 F1800.000 E5.00000
G1 X47.813 Y150.038 F1200.000 E5.03193
G1 X45.963 Y150.038 E5.09348
G1 X45.963 Y148.188 E5.15503
G1 X56.975 Y148.188 E5.52112
G1 X56.075 Y149.075 E5.56300
G1 X48.013 Y149.075 E5.83128
G1 X47.013 Y149.075
; perimeter_end
; infill_start
G1 X47.650 Y148.625
G1 X55.888 Y148.638 F600.000 E6.14683
G1 X56.425 Y148.425 E6.16862
G1 X46.800 Y149.025 F7200.000
G1 X46.888 Y149.113 F600.000 E6.17387
G1 X46.813 Y149.188 E6.17880
; infill_end
; perimeter_start
G1 F1800.000 E1.17880
G92 E0
G1 X46.363 Y132.113 F7200.000
G1 F1800.000 E5.00000
G1 X47.413 Y132.113 F1200.000 E5.03494
G1 X47.413 Y132.788 E5.05720
G1 X46.363 Y132.788 E5.09214
G1 X46.363 Y132.313 E5.10775
G1 F1800.000 E0.10775
G92 E0
G1 X47.813 Y132.675 F7200.000
G1 F1800.000 E5.00000
G1 X56.075 Y132.675 F1200.000 E5.27494
G1 X56.588 Y133.188 E5.29889
G1 X45.963 Y133.188 E5.65232
G1 X45.963 Y131.713 E5.70119
G1 X47.813 Y131.713 E5.76273
G1 X47.813 Y132.475 E5.78802
G1 X47.813 Y133.475
; perimeter_end
; infill_start
G1 X47.913 Y132.975
G1 X55.700 Y132.875 F600.000 E5.89917
G1 X47.075 Y132.450 F7200.000
G1 X46.700 Y132.450 F600.000 E5.90847
; infill_end
; perimeter_start
G1 F1800.000 E0.90847
G92 E0
G1 X78.813 Y102.963 F7200.000
G1 F1800.000 E5.00000
G1 X78.938 Y103.238 F720.000 E5.00500
G1 X79.038 Y103.850 E5.01528
G1 X79.025 Y103.925 E5.01663
G1 X79.000 Y104.188 F1200.000 E5.02548
G1 X78.800 Y104.700 E5.04363
G1 X77.550 Y104.700 E5.08515
G1 X77.425 Y104.425 E5.09516
G1 X77.325 Y103.813 E5.11571
G1 X77.363 Y103.475 E5.12726
G1 X77.563 Y102.963 E5.14541
G1 X77.613 Y102.963 E5.14702
G1 X78.613 Y102.963 E5.16365
G1 F1800.000 E0.16365
G92 E0
G1 X77.288 Y105.100 F7200.000
G1 F1800.000 E5.00000
G1 X77.038 Y104.538 F720.000 E5.01016
G1 X76.975 Y104.163 E5.01663
G1 X76.913 Y103.825 F1200.000 E5.02784
G1 X76.950 Y103.488 E5.03934
G1 X76.963 Y103.375 F1120.000 E5.04308
G1 X77.300 Y102.563 E5.07202
G1 X77.313 Y102.563 E5.07260
G1 X78.313 Y102.563 F1040.000 E5.10586
G1 X79.075 Y102.563 F960.000 E5.13109
G1 X79.175 Y102.788 E5.13912
G1 X79.325 Y103.125 F880.000 E5.15140
G1 X79.425 Y103.738 E5.17238
G1 X79.438 Y103.838 F800.000 E5.17556
G1 X79.388 Y104.288 E5.19080
G1 X79.225 Y104.700 E5.20564
G1 X79.063 Y105.100 F720.000 E5.21973
G1 X78.488 Y105.100 E5.23890
G1 X77.488 Y105.100 E5.25553
G1 X77.438 Y104.500
; perimeter_end
; perimeter_start
G1 F1800.000 E0.25553
G92 E0
G1 X89.963 Y102.963 F7200.000
G1 F1800.000 E5.00000
G1 X98.125 Y102.963 F1200.000 E5.27149
G1 X98.250 Y103.238 E5.28150
G1 X98.350 Y103.850 E5.30206
G1 X98.313 Y104.188 E5.31360
G1 X98.100 Y104.700 E5.33175
G1 X89.963 Y104.700 E5.60268
G1 X89.963 Y103.163 E5.65371
G1 F1800.000 E0.65371
G92 E0
G1 X89.563 Y103.650 F7200.000
G1 F1800.000 E5.00000
G1 X89.563 Y102.563 F1200.000 E5.03627
G1 X98.375 Y102.563 E5.32966
G1 X98.638 Y103.125 E5.34997
G1 X98.750 Y103.838 E5.37412
G1 X98.700 Y104.288 E5.38937
G1 X98.375 Y105.100 E5.41830
G1 X89.563 Y105.100 E5.71150
G1 X89.563 Y104.013 E5.74777
G1 X85.600 Y104.013 E5.87946
G1 X85.275 Y104.963 E5.91312
G1 X84.713 Y104.438 E5.93908
G1 X84.513 Y104.038 E5.95399
G1 X84.513 Y103.625 E5.96743
G1 X84.713 Y103.225 E5.98234
G1 X85.275 Y102.700 E6.00794
G1 X85.463 Y103.125 E6.02340
G1 X85.588 Y103.650 E6.04152
G1 X89.363 Y103.650 E6.16683
G1 X90.363 Y103.650
; perimeter_end
; infill_start
G1 X90.463 Y103.263
G1 X90.250 Y103.463 F1800.000 E6.17784
G1 X90.250 Y104.113 E6.20183
G1 X91.100 Y103.263 E6.24676
G1 X91.738 Y103.263 E6.27075
G1 X90.600 Y104.400 E6.33131
G1 X91.238 Y104.400 E6.35530
G1 X92.375 Y103.263 E6.41586
G1 X93.013 Y103.263 E6.43985
G1 X91.875 Y104.400 E6.50041
G1 X92.513 Y104.400 E6.52440
G1 X93.663 Y103.263 E6.58496
G1 X94.300 Y103.263 E6.60895
G1 X93.150 Y104.400 E6.66951
G1 X93.800 Y104.400 E6.69350
G1 X94.938 Y103.263 E6.75406
G1 X95.575 Y103.263 E6.77805
G1 X94.438 Y104.400 E6.83861
G1 X95.075 Y104.400 E6.86260
G1 X96.213 Y103.263 E6.92316
G1 X96.850 Y103.263 E6.94715
G1 X95.713 Y104.400 E7.00771
G1 X96.350 Y104.400 E7.03169
G1 X97.488 Y103.263 E7.09226
G1 X97.975 Y103.413 E7.11136
G1 X96.988 Y104.400 E7.16374
G1 X97.625 Y104.400 E7.18773
G1 X98.038 Y104.000 E7.20930
G1 F1800.000 E2.20930
G92 E0
G1 X85.163 Y104.563 F7200.000
G1 F1800.000 E5.00000
G1 X85.050 Y103.750 F600.000 E5.03106
G1 X85.163 Y103.088 E5.05629
; infill_end
; perimeter_start
G1 F1800.000 E0.05629
G92 E0
G1 X104.613 Y98.550 F7200.000
G1 F1800.000 E5.00000
G1 X103.613 Y98.550 F720.000 E5.01663
G1 X103.363 Y98.550 F1200.000 E5.02489
G1 X103.238 Y98.275 E5.03489
G1 X103.138 Y97.663 E5.05545
G1 X103.175 Y97.313 E5.06700
G1 X103.375 Y96.813 E5.08515
G1 X104.625 Y96.813 E5.12667
G1 X104.750 Y97.088 E5.13667
G1 X104.800 Y97.388 E5.14702
G1 X104.850 Y97.700 E5.15212
G1 X104.813 Y98.038 E5.15790
G1 X104.688 Y98.363 E5.16365
G1 F1800.000 E0.16365
G92 E0
G1 X104.875 Y98.950 F7200.000
G1 F1800.000 E5.00000
G1 X103.875 Y98.950 F720.000 E5.01663
G1 X103.200 Y98.950 F1200.000 E5.03933
G1 X103.100 Y98.950 F1120.000 E5.04244
G1 X102.850 Y98.388 E5.06275
G1 X102.800 Y98.100 E5.07260
G1 X102.725 Y97.675 F1040.000 E5.08691
G1 X102.788 Y97.213 E5.10215
G1 X102.825 Y97.113 E5.10586
G1 X103.113 Y96.413 F960.000 E5.13109
G1 X103.350 Y96.413 E5.13912
G1 X104.350 Y96.413 F880.000 E5.17238
G1 X104.888 Y96.413 F800.000 E5.19016
G1 X105.075 Y96.838 E5.20564
G1 X105.138 Y96.963 F720.000 E5.21047
G1 X105.263 Y97.688 E5.23463
G1 X105.238 Y97.813 E5.23890
G1 X105.200 Y98.138 E5.24438
G1 X104.950 Y98.763 E5.25553
G1 X104.238 Y98.463
; perimeter_end
; perimeter_start
G1 F1800.000 E0.25553
G92 E0
G1 X115.775 Y96.813 F7200.000
G1 F1800.000 E5.00000
G1 X123.938 Y96.813 F1200.000 E5.27149
G1 X124.063 Y97.088 E5.28150
G1 X124.163 Y97.700 E5.30206
G1 X124.125 Y98.038 E5.31360
G1 X123.925 Y98.550 E5.33175
G1 X115.775 Y98.550 E5.60268
G1 X115.775 Y97.013 E5.65371
G1 F1800.000 E0.65371
G92 E0
G1 X115.375 Y97.500 F7200.000
G1 F1800.000 E5.00000
G1 X115.375 Y96.413 F1200.000 E5.03627
G1 X124.200 Y96.413 E5.32966
G1 X124.450 Y96.963 E5.34997
G1 X124.563 Y97.688 E5.37412
G1 X124.513 Y98.138 E5.38937
G1 X124.188 Y98.950 E5.41830
G1 X115.375 Y98.950 E5.71150
G1 X115.375 Y97.850 E5.74777
G1 X111.413 Y97.850 E5.87946
G1 X111.100 Y98.813 E5.91312
G1 X110.525 Y98.275 E5.93908
G1 X110.325 Y97.875 E5.95399
G1 X110.325 Y97.475 E5.96743
G1 X110.525 Y97.075 E5.98234
G1 X111.088 Y96.550 E6.00794
G1 X111.275 Y96.975 E6.02340
G1 X111.413 Y97.500 E6.04152
G1 X115.175 Y97.500 E6.16683
G1 X116.175 Y97.500
; perimeter_end
; infill_start
G1 X116.275 Y97.113
G1 X116.075 Y97.313 F1800.000 E6.17784
G1 X116.075 Y97.950 E6.20183
G1 X116.913 Y97.113 E6.24676
G1 X117.550 Y97.113 E6.27075
G1 X116.413 Y98.250 E6.33131
G1 X117.050 Y98.250 E6.35530
G1 X118.200 Y97.113 E6.41586
G1 X118.838 Y97.113 E6.43985
G1 X117.688 Y98.250 E6.50041
G1 X118.338 Y98.250 E6.52440
G1 X119.475 Y97.113 E6.58496
G1 X120.113 Y97.113 E6.60895
G1 X118.975 Y98.250 E6.66951
G1 X119.613 Y98.250 E6.69350
G1 X120.750 Y97.113 E6.75406
G1 X121.388 Y97.113 E6.77805
G1 X120.250 Y98.250 E6.83861
G1 X120.888 Y98.250 E6.86260
G1 X122.025 Y97.113 E6.92316
G1 X122.663 Y97.113 E6.94714
G1 X121.525 Y98.250 E7.00771
G1 X122.163 Y98.250 E7.03169
G1 X123.300 Y97.113 E7.09226
G1 X123.788 Y97.263 E7.11136
G1 X122.800 Y98.250 E7.16374
G1 X123.438 Y98.250 E7.18772
G1 X123.850 Y97.838 E7.20930
G1 F1800.000 E2.20930
G92 E0
G1 X110.975 Y98.413 F7200.000
G1 F1800.000 E5.00000
G1 X110.863 Y97.600 F600.000 E5.03106
G1 X110.975 Y96.938 E5.05629
; infill_end
; perimeter_start
G1 F1800.000 E0.05629
G92 E0
G1 X114.400 Y72.388 F7200.000
G1 F1800.000 E5.00000
G1 X114.400 Y70.650 F1200.000 E5.05769
G1 X122.563 Y70.650 E5.32918
G1 X122.675 Y70.925 E5.33918
G1 X122.788 Y71.538 E5.35974
G1 X122.750 Y71.888 E5.37128
G1 X122.538 Y72.388 E5.38944
G1 X114.600 Y72.388 E5.65371
G1 F1800.000 E0.65371
G92 E0
G1 X114.000 Y71.350 F7200.000
G1 F1800.000 E5.00000
G1 X114.000 Y70.250 F1200.000 E5.03627
G1 X122.813 Y70.250 E5.32966
G1 X123.063 Y70.813 E5.34997
G1 X123.188 Y71.525 E5.37412
G1 X123.138 Y71.988 E5.38937
G1 X122.813 Y72.788 E5.41830
G1 X114.000 Y72.788 E5.71150
G1 X114.000 Y71.700 E5.74777
G1 X110.038 Y71.700 E5.87946
G1 X109.713 Y72.663 E5.91312
G1 X109.150 Y72.125 E5.93908
G1 X108.950 Y71.725 E5.95399
G1 X108.950 Y71.325 E5.96743
G1 X109.150 Y70.925 E5.98234
G1 X109.713 Y70.388 E6.00794
G1 X109.900 Y70.813 E6.02340
G1 X110.025 Y71.350 E6.04152
G1 X113.800 Y71.350 E6.16683
G1 X114.800 Y71.350
; perimeter_end
; infill_start
G1 X114.900 Y70.950
G1 X114.688 Y71.163 F1800.000 E6.17784
G1 X114.688 Y71.800 E6.20183
G1 X115.538 Y70.950 E6.24676
G1 X116.175 Y70.950 E6.27075
G1 X115.038 Y72.088 E6.33131
G1 X115.675 Y72.088 E6.35530
G1 X116.813 Y70.950 E6.41586
G1 X117.450 Y70.950 E6.43985
G1 X116.313 Y72.088 E6.50041
G1 X116.950 Y72.088 E6.52440
G1 X118.088 Y70.950 E6.58496
G1 X118.738 Y70.950 E6.60895
G1 X117.588 Y72.088 E6.66951
G1 X118.225 Y72.088 E6.69350
G1 X119.375 Y70.950 E6.75406
G1 X120.013 Y70.950 E6.77805
G1 X118.863 Y72.088 E6.83861
G1 X119.513 Y72.088 E6.86260
G1 X120.650 Y70.950 E6.92316
G1 X121.288 Y70.950 E6.94714
G1 X120.150 Y72.088 E7.00771
G1 X120.788 Y72.088 E7.03169
G1 X121.925 Y70.950 E7.09226
G1 X122.413 Y71.113 E7.11136
G1 X121.425 Y72.088 E7.16374
G1 X122.063 Y72.088 E7.18772
G1 X122.463 Y71.688 E7.20930
G1 F1800.000 E2.20930
G92 E0
G1 X109.600 Y72.263 F7200.000
G1 F1800.000 E5.00000
G1 X109.488 Y71.438 F600.000 E5.03106
G1 X109.600 Y70.788 E5.05629
; infill_end
; perimeter_start
G1 F1800.000 E0.05629
G92 E0
G1 X119.750 Y57.175 F7200.000
G1 F1800.000 E5.00000
G1 X103.138 Y57.175 F1200.000 E5.55281
G1 X103.138 Y56.800 E5.56512
G1 X119.750 Y56.800 E6.11793
G1 X119.750 Y56.975 E6.12359
G1 X119.063 Y56.775
; perimeter_end
; perimeter_start
G1 F1800.000 E1.12359
G92 E0
G1 X102.013 Y38.125 F7200.000
G1 F1800.000 E5.00000
G1 X102.013 Y37.763 F1200.000 E5.01231
G1 X118.638 Y37.763 E5.56512
G1 X118.638 Y38.125 E5.57744
G1 X102.213 Y38.125 E6.12359
G1 X102.200 Y37.813
; perimeter_end
; perimeter_start
G1 F1800.000 E1.12359
G92 E0
G1 X69.088 Y37.238 F7200.000
G1 F1800.000 E5.00000
G1 X85.713 Y37.238 F1200.000 E5.55281
G1 X85.713 Y37.613 E5.56512
G1 X69.088 Y37.613 E6.11793
G1 X69.088 Y37.438 E6.12359
G1 X69.775 Y37.638
; perimeter_end
; perimeter_start
G1 F1800.000 E1.12359
G92 E0
G1 X68.138 Y52.263 F7200.000
G1 F1800.000 E5.00000
G1 X68.138 Y51.888 F1200.000 E5.01231
G1 X84.750 Y51.888 E5.56512
G1 X84.750 Y52.263 E5.57744
G1 X68.338 Y52.263 E6.12359
G1 X68.313 Y51.938
; perimeter_end
; perimeter_start
G1 F1800.000 E1.12359
G92 E0
G1 X103.250 Y70.650 F7200.000
G1 F1800.000 E5.00000
G1 X103.375 Y70.925 F720.000 E5.00500
G1 X103.475 Y71.538 E5.01528
G1 X103.463 Y71.625 E5.01663
G1 X103.438 Y71.888 F1200.000 E5.02548
G1 X103.225 Y72.388 E5.04363
G1 X101.988 Y72.388 E5.08515
G1 X101.863 Y72.113 E5.09515
G1 X101.750 Y71.513 E5.11571
G1 X101.800 Y71.163 E5.12726
G1 X102.000 Y70.650 E5.14541
G1 X102.050 Y70.650 E5.14702
G1 X103.050 Y70.650 E5.16365
G1 F1800.000 E0.16365
G92 E0
G1 X101.725 Y72.788 F7200.000
G1 F1800.000 E5.00000
G1 X101.475 Y72.238 F720.000 E5.01016
G1 X101.413 Y71.850 E5.01663
G1 X101.350 Y71.513 F1200.000 E5.02784
G1 X101.388 Y71.175 E5.03933
G1 X101.400 Y71.063 F1120.000 E5.04308
G1 X101.725 Y70.250 E5.07202
G1 X101.750 Y70.250 E5.07260
G1 X102.750 Y70.250 F1040.000 E5.10586
G1 X103.500 Y70.250 F960.000 E5.13109
G1 X103.600 Y70.475 E5.13912
G1 X103.763 Y70.813 F880.000 E5.15140
G1 X103.863 Y71.438 E5.17238
G1 X103.875 Y71.525 F800.000 E5.17556
G1 X103.825 Y71.988 E5.19080
G1 X103.663 Y72.400 E5.20564
G1 X103.500 Y72.788 F720.000 E5.21973
G1 X102.925 Y72.788 E5.23890
G1 X101.925 Y72.788 E5.25553
G1 X101.875 Y72.200
; perimeter_end
; perimeter_start
G1 F1800.000 E0.25553
G92 E0
G1 X90.063 Y84.438 F7200.000
G1 F1800.000 E5.00000
G1 X90.063 Y82.700 F1200.000 E5.05769
G1 X98.225 Y82.700 E5.32918
G1 X98.350 Y82.975 E5.33918
G1 X98.450 Y83.588 E5.35974
G1 X98.413 Y83.925 E5.37128
G1 X98.213 Y84.438 E5.38944
G1 X90.263 Y84.438 E5.65371
G1 F1800.000 E0.65371
G92 E0
G1 X89.663 Y83.750 F7200.000
G1 F1800.000 E5.00000
G1 X85.700 Y83.750 F1200.000 E5.13169
G1 X85.388 Y84.700 E5.16535
G1 X84.813 Y84.175 E5.19131
G1 X84.613 Y83.775 E5.20622
G1 X84.613 Y83.363 E5.21966
G1 X84.813 Y82.963 E5.23457
G1 X85.375 Y82.438 E5.26017
G1 X85.575 Y82.863 E5.27563
G1 X85.700 Y83.388 E5.29375
G1 X89.663 Y83.388 E5.42571
G1 X89.663 Y82.300 E5.46198
G1 X98.488 Y82.300 E5.75537
G1 X98.738 Y82.863 E5.77568
G1 X98.863 Y83.575 E5.79983
G1 X98.800 Y84.025 E5.81508
G1 X98.475 Y84.838 E5.84401
G1 X89.663 Y84.838 E6.13721
G1 X89.663 Y83.950 E6.16683
G1 X89.663 Y82.950
; perimeter_end
; infill_start
G1 X90.563 Y83.000
G1 X90.363 Y83.200 F1800.000 E6.17784
G1 X90.363 Y83.850 E6.20183
G1 X91.213 Y83.000 E6.24676
G1 X91.850 Y83.000 E6.27075
G1 X90.700 Y84.138 E6.33131
G1 X91.350 Y84.138 E6.35530
G1 X92.488 Y83.000 E6.41586
G1 X93.125 Y83.000 E6.43985
G1 X91.988 Y84.138 E6.50041
G1 X92.625 Y84.138 E6.52440
G1 X93.763 Y83.000 E6.58496
G1 X94.400 Y83.000 E6.60895
G1 X93.263 Y84.138 E6.66951
G1 X93.900 Y84.138 E6.69350
G1 X95.038 Y83.000 E6.75406
G1 X95.675 Y83.000 E6.77805
G1 X94.538 Y84.138 E6.83861
G1 X95.175 Y84.138 E6.86260
G1 X96.313 Y83.000 E6.92316
G1 X96.950 Y83.000 E6.94714
G1 X95.813 Y84.138 E7.00771
G1 X96.450 Y84.138 E7.03169
G1 X97.600 Y83.000 E7.09226
G1 X98.075 Y83.150 E7.11136
G1 X97.088 Y84.138 E7.16374
G1 X97.738 Y84.138 E7.18773
G1 X98.138 Y83.738 E7.20930
G1 F1800.000 E2.20930
G92 E0
G1 X85.275 Y84.300 F7200.000
G1 F1800.000 E5.00000
G1 X85.150 Y83.488 F600.000 E5.03106
G1 X85.263 Y82.825 E5.05629
; infill_end
; perimeter_start
G1 F1800.000 E0.05629
G92 E0
G1 X77.650 Y84.438 F7200.000
G1 F1800.000 E5.00000
G1 X77.525 Y84.163 F720.000 E5.00500
G1 X77.425 Y83.550 E5.01528
G1 X77.438 Y83.475 E5.01663
G1 X77.463 Y83.213 F1200.000 E5.02548
G1 X77.663 Y82.700 E5.04363
G1 X78.913 Y82.700 E5.08515
G1 X79.038 Y82.975 E5.09515
G1 X79.150 Y83.588 E5.11571
G1 X79.100 Y83.925 E5.12726
G1 X78.900 Y84.438 E5.14541
G1 X78.850 Y84.438 E5.14702
G1 X77.850 Y84.438 E5.16365
G1 F1800.000 E0.16365
G92 E0
G1 X77.388 Y84.838 F7200.000
G1 F1800.000 E5.00000
G1 X77.138 Y84.275 F720.000 E5.01016
G1 X77.075 Y83.900 E5.01663
G1 X77.025 Y83.563 F1200.000 E5.02784
G1 X77.063 Y83.225 E5.03933
G1 X77.075 Y83.113 F1120.000 E5.04308
G1 X77.400 Y82.300 E5.07202
G1 X77.413 Y82.300 E5.07260
G1 X78.413 Y82.300 F1040.000 E5.10586
G1 X79.175 Y82.300 F960.000 E5.13109
G1 X79.275 Y82.525 E5.13912
G1 X79.425 Y82.863 F880.000 E5.15140
G1 X79.538 Y83.475 E5.17238
G1 X79.550 Y83.575 F800.000 E5.17556
G1 X79.500 Y84.025 E5.19080
G1 X79.325 Y84.438 E5.20564
G1 X79.175 Y84.838 F720.000 E5.21973
G1 X78.588 Y84.838 E5.23890
G1 X77.588 Y84.838 E5.25553
G1 X77.538 Y84.238
; perimeter_end
G1 F1800.000 E0.25553
G92 E0
; Layer: 3 Time: 95
G1 Z0.750 F7200.000
; Region: 0
; perimeter_start
G1 X45.213 Y52.988
G1 F1800.000 E5.00000
G1 X45.213 Y53.650 F1200.000 E5.02227
G1 X44.163 Y53.650 E5.05720
G1 X44.163 Y52.988 E5.07947
G1 X45.013 Y52.988 E5.10775
G1 F1800.000 E0.10775
G92 E0
G1 X45.613 Y53.550 F7200.000
G1 F1800.000 E5.00000
G1 X53.875 Y53.550 F1200.000 E5.27494
G1 X54.388 Y54.050 E5.29889
G1 X43.763 Y54.050 E5.65232
G1 X43.763 Y52.588 E5.70119
G1 X45.613 Y52.588 E5.76273
G1 X45.613 Y53.350 E5.78802
G1 X45.613 Y54.350
; perimeter_end
; infill_start
G1 X45.713 Y53.850
G1 X53.488 Y53.750 F600.000 E5.89917
G1 X44.875 Y53.313 F7200.000
G1 X44.500 Y53.325 F600.000 E5.90847
; infill_end
; perimeter_start
G1 F1800.000 E0.90847
G92 E0
G1 X53.213 Y63.600 F7200.000
G1 F1800.000 E5.00000
G1 X44.163 Y63.600 F1200.000 E5.30100
G1 X44.163 Y59.850 E5.42541
G1 X54.363 Y59.850 E5.76465
G1 X54.363 Y64.650 E5.92428
G1 X53.213 Y64.650 E5.96251
G1 X53.213 Y63.800 E5.99109
G1 F1800.000 E0.99109
G92 E0
G1 X52.813 Y64.000 F7200.000
G1 F1800.000 E5.00000
G1 X43.763 Y64.000 F1200.000 E5.30100
G1 X43.763 Y59.450 E5.45202
G1 X54.763 Y59.450 E5.81786
G1 X54.763 Y65.050 E6.00410
G1 X52.813 Y65.050 E6.06894
G1 X52.813 Y64.200 E6.09752
G1 X52.813 Y63.200
; perimeter_end
; infill_start
G1 X53.688 Y63.663
G1 X53.788 Y63.775 F600.000 E6.10465
G1 X53.875 Y63.675 E6.11139
G1 X53.788 Y63.575
G1 X53.788 Y64.075 E6.13719
G1 X54.013 Y64.325 E6.15446
G1 X53.875 Y60.150 F7200.000
G1 X54.063 Y60.338 F1800.000 E6.16411
G1 X54.063 Y60.963 E6.18662
G1 X53.250 Y60.150 E6.22811
G1 X52.638 Y60.150 E6.25063
G1 X54.063 Y61.575 E6.32396
G1 X54.063 Y62.200 E6.34648
G1 X52.013 Y60.150 E6.45165
G1 X51.400 Y60.150 E6.47417
G1 X54.063 Y62.813 E6.61118
G1 X53.925 Y63.300 E6.62945
G1 X50.775 Y60.150 E6.79134
G1 X50.163 Y60.150 E6.81386
G1 X53.313 Y63.300 E6.97575
G1 X52.688 Y63.300 E6.99827
G1 X49.538 Y60.150 E7.16016
G1 X48.925 Y60.150 E7.18268
G1 X52.075 Y63.300 E7.34457
G1 X51.450 Y63.300 E7.36709
G1 X48.300 Y60.150 E7.52898
G1 X47.688 Y60.150 E7.55150
G1 X50.838 Y63.300 E7.71339
G1 X50.213 Y63.300 E7.73591
G1 X47.063 Y60.150 E7.89780
G1 X46.450 Y60.150 E7.92032
G1 X49.600 Y63.300 E8.08221
G1 X48.975 Y63.300 E8.10473
G1 X45.825 Y60.150 E8.26662
G1 X45.213 Y60.150 E8.28914
G1 X48.350 Y63.300 E8.45103
G1 X47.738 Y63.300 E8.47355
G1 X44.588 Y60.150 E8.63544
G1 X44.450 Y60.638 E8.65371
G1 X47.113 Y63.300 E8.79073
G1 X46.500 Y63.300 E8.81324
G1 X44.450 Y61.250 E8.91842
G1 X44.450 Y61.875 E8.94093
G1 X45.875 Y63.300 E9.01427
G1 X45.263 Y63.300 E9.03678
G1 X44.450 Y62.488 E9.07827
G1 X44.450 Y63.113 E9.10079
G1 X44.638 Y63.300 E9.11043
; infill_end
; perimeter_start
G1 F1800.000 E4.11043
G92 E0
G1 X44.163 Y69.450 F7200.000
G1 F1800.000 E5.00000
G1 X45.213 Y69.450 F1200.000 E5.03494
G1 X45.213 Y70.500 E5.06988
G1 X44.163 Y70.500 E5.10481
G1 X44.163 Y69.650 E5.13310
G1 F1800.000 E0.13310
G92 E0
G1 X45.613 Y69.950 F7200.000
G1 F1800.000 E5.00000
G1 X45.613 Y70.900 F1200.000 E5.03193
G1 X43.763 Y70.900 E5.09348
G1 X43.763 Y69.050 E5.15503
G1 X54.763 Y69.050 E5.52112
G1 X53.875 Y69.950 E5.56300
G1 X45.813 Y69.950 E5.83128
G1 X44.813 Y69.950
; perimeter_end
; infill_start
G1 X45.438 Y69.500
G1 X53.688 Y69.513 F600.000 E6.14683
G1 X54.213 Y69.300 E6.16862
G1 X44.600 Y69.900 F7200.000
G1 X44.688 Y69.975 F600.000 E6.17387
G1 X44.600 Y70.063 E6.17880
; infill_end
; perimeter_start
G1 F1800.000 E1.17880
G92 E0
G1 X45.563 Y79.263 F7200.000
G1 F1800.000 E5.00000
G1 X45.563 Y79.938 F1200.000 E5.02227
G1 X44.513 Y79.938 E5.05720
G1 X44.513 Y79.263 E5.07947
G1 X45.363 Y79.263 E5.10775
G1 F1800.000 E0.10775
G92 E0
G1 X45.963 Y79.825 F7200.000
G1 F1800.000 E5.00000
G1 X54.238 Y79.825 F1200.000 E5.27494
G1 X54.738 Y80.338 E5.29889
G1 X44.113 Y80.338 E5.65232
G1 X44.113 Y78.863 E5.70119
G1 X45.963 Y78.863 E5.76273
G1 X45.963 Y79.625 E5.78802
G1 X45.963 Y80.625
; perimeter_end
; infill_start
G1 X46.063 Y80.125
G1 X53.850 Y80.025 F600.000 E5.89917
G1 X45.225 Y79.600 F7200.000
G1 X44.850 Y79.600 F600.000 E5.90847
; infill_end
; perimeter_start
G1 F1800.000 E0.90847
G92 E0
G1 X53.563 Y89.875 F7200.000
G1 F1800.000 E5.00000
G1 X44.513 Y89.875 F1200.000 E5.30100
G1 X44.513 Y86.138 E5.42541
G1 X54.713 Y86.138 E5.76465
G1 X54.713 Y90.938 E5.92428
G1 X53.563 Y90.938 E5.96251
G1 X53.563 Y90.075 E5.99109
G1 F1800.000 E0.99109
G92 E0
G1 X53.163 Y90.275 F7200.000
G1 F1800.000 E5.00000
G1 X44.113 Y90.275 F1200.000 E5.30100
G1 X44.113 Y85.738 E5.45202
G1 X55.113 Y85.738 E5.81786
G1 X55.113 Y91.338 E6.00410
G1 X53.163 Y91.338 E6.06894
G1 X53.163 Y90.475 E6.09752
G1 X53.163 Y89.475
; perimeter_end
; infill_start
G1 X54.050 Y89.950
G1 X54.138 Y90.050 F600.000 E6.10465
G1 X54.238 Y89.950 E6.11139
G1 X54.138 Y89.850
G1 X54.138 Y90.363 E6.13719
G1 X54.375 Y90.600 E6.15446
G1 X54.238 Y86.425 F7200.000
G1 X54.425 Y86.613 F1800.000 E6.16411
G1 X54.425 Y87.238 E6.18662
G1 X53.613 Y86.425 E6.22811
G1 X53.000 Y86.425 E6.25063
G1 X54.425 Y87.850 E6.32396
G1 X54.425 Y88.475 E6.34648
G1 X52.375 Y86.425 E6.45165
G1 X51.763 Y86.425 E6.47417
G1 X54.425 Y89.088 E6.61118
G1 X54.288 Y89.575 E6.62945
G1 X51.138 Y86.425 E6.79134
G1 X50.525 Y86.425 E6.81386
G1 X53.663 Y89.575 E6.97575
G1 X53.050 Y89.575 E6.99827
G1 X49.900 Y86.425 E7.16016
G1 X49.288 Y86.425 E7.18268
G1 X52.425 Y89.575 E7.34457
G1 X51.813 Y89.575 E7.36709
G1 X48.663 Y86.425 E7.52898
G1 X48.050 Y86.425 E7.55150
G1 X51.188 Y89.575 E7.71339
G1 X50.575 Y89.575 E7.73591
G1 X47.425 Y86.425 E7.89780
G1 X46.813 Y86.425 E7.92032
G1 X49.950 Y89.575 E8.08221
G1 X49.338 Y89.575 E8.10473
G1 X46.188 Y86.425 E8.26662
G1 X45.575 Y86.425 E8.28914
G1 X48.713 Y89.575 E8.45103
G1 X48.100 Y89.575 E8.47355
G1 X44.950 Y86.425 E8.63544
G1 X44.813 Y86.913 E8.65371
G1 X47.475 Y89.575 E8.79073
G1 X46.863 Y89.575 E8.81324
G1 X44.813 Y87.538 E8.91842
G1 X44.813 Y88.150 E8.94093
G1 X46.238 Y89.575 E9.01426
G1 X45.625 Y89.575 E9.03678
G1 X44.813 Y88.775 E9.07827
G1 X44.813 Y89.388 E9.10079
G1 X45.000 Y89.575 E9.11043
; infill_end
; perimeter_start
G1 F1800.000 E4.11043
G92 E0
G1 X45.563 Y95.738 F7200.000
G1 F1800.000 E5.00000
G1 X45.563 Y96.788 F1200.000 E5.03494
G1 X44.513 Y96.788 E5.06988
G1 X44.513 Y95.738 E5.10481
G1 X45.363 Y95.738 E5.13310
G1 F1800.000 E0.13310
G92 E0
G1 X45.963 Y96.225 F7200.000
G1 F1800.000 E5.00000
G1 X45.963 Y97.188 F1200.000 E5.03193
G1 X44.113 Y97.188 E5.09348
G1 X44.113 Y95.338 E5.15503
G1 X55.125 Y95.338 E5.52112
G1 X54.238 Y96.225 E5.56300
G1 X46.163 Y96.225 E5.83128
G1 X45.163 Y96.225
; perimeter_end
; infill_start
G1 X45.800 Y95.775
G1 X54.050 Y95.788 F600.000 E6.14683
G1 X54.575 Y95.575 E6.16862
G1 X44.963 Y96.175 F7200.000
G1 X45.038 Y96.263 F600.000 E6.17386
G1 X44.963 Y96.338 E6.17880
; infill_end
; perimeter_start
G1 F1800.000 E1.17880
G92 E0
G1 X46.525 Y106.563 F7200.000
G1 F1800.000 E5.00000
G1 X46.525 Y107.238 F1200.000 E5.02227
G1 X45.475 Y107.238 E5.05720
G1 X45.475 Y106.563 E5.07947
G1 X46.325 Y106.563 E5.10775
G1 F1800.000 E0.10775
G92 E0
G1 X46.925 Y107.125 F7200.000
G1 F1800.000 E5.00000
G1 X55.188 Y107.125 F1200.000 E5.27494
G1 X55.700 Y107.638 E5.29889
G1 X45.075 Y107.638 E5.65232
G1 X45.075 Y106.163 E5.70119
G1 X46.925 Y106.163 E5.76273
G1 X46.925 Y106.925 E5.78802
G1 X46.925 Y107.925
; perimeter_end
; infill_start
G1 X47.025 Y107.438
G1 X54.800 Y107.325 F600.000 E5.89917
G1 X46.188 Y106.900 F7200.000
G1 X45.813 Y106.900 F600.000 E5.90847
; infill_end
; perimeter_start
G1 F1800.000 E0.90847
G92 E0
G1 X54.525 Y117.175 F7200.000
G1 F1800.000 E5.00000
G1 X45.475 Y117.175 F1200.000 E5.30100
G1 X45.475 Y113.438 E5.42541
G1 X55.675 Y113.438 E5.76465
G1 X55.675 Y118.238 E5.92428
G1 X54.525 Y118.238 E5.96251
G1 X54.525 Y117.375 E5.99109
G1 F1800.000 E0.99109
G92 E0
G1 X54.125 Y117.575 F7200.000
G1 F1800.000 E5.00000
G1 X45.075 Y117.575 F1200.000 E5.30100
G1 X45.075 Y113.038 E5.45202
G1 X56.075 Y113.038 E5.81786
G1 X56.075 Y118.638 E6.00410
G1 X54.125 Y118.638 E6.06894
G1 X54.125 Y117.775 E6.09752
G1 X54.125 Y116.775
; perimeter_end
; infill_start
G1 X55.000 Y117.250
G1 X55.100 Y117.350 F600.000 E6.10465
G1 X55.188 Y117.250 E6.11139
G1 X55.088 Y117.150
G1 X55.100 Y117.663 E6.13719
G1 X55.325 Y117.913 E6.15446
G1 X55.188 Y113.738 F7200.000
G1 X55.375 Y113.925 F1800.000 E6.16411
G1 X55.375 Y114.538 E6.18662
G1 X54.563 Y113.738 E6.22811
G1 X53.950 Y113.738 E6.25063
G1 X55.375 Y115.163 E6.32396
G1 X55.375 Y115.775 E6.34648
G1 X53.325 Y113.738 E6.45165
G1 X52.713 Y113.738 E6.47417
G1 X55.375 Y116.400 E6.61118
G1 X55.238 Y116.875 E6.62945
G1 X52.088 Y113.738 E6.79134
G1 X51.475 Y113.738 E6.81386
G1 X54.613 Y116.875 E6.97575
G1 X54.000 Y116.875 E6.99827
G1 X50.850 Y113.738 E7.16016
G1 X50.238 Y113.738 E7.18268
G1 X53.375 Y116.875 E7.34457
G1 X52.763 Y116.875 E7.36709
G1 X49.613 Y113.738 E7.52898
G1 X49.000 Y113.738 E7.55150
G1 X52.138 Y116.875 E7.71339
G1 X51.525 Y116.875 E7.73591
G1 X48.375 Y113.738 E7.89780
G1 X47.763 Y113.738 E7.92032
G1 X50.900 Y116.875 E8.08221
G1 X50.288 Y116.875 E8.10473
G1 X47.138 Y113.738 E8.26662
G1 X46.525 Y113.738 E8.28914
G1 X49.663 Y116.875 E8.45103
G1 X49.050 Y116.875 E8.47355
G1 X45.900 Y113.738 E8.63544
G1 X45.763 Y114.213 E8.65371
G1 X48.425 Y116.875 E8.79073
G1 X47.813 Y116.875 E8.81324
G1 X45.763 Y114.838 E8.91842
G1 X45.763 Y115.450 E8.94093
G1 X47.188 Y116.875 E9.01427
G1 X46.575 Y116.875 E9.03678
G1 X45.763 Y116.075 E9.07827
G1 X45.763 Y116.688 E9.10079
G1 X45.950 Y116.875 E9.11043
; infill_end
; perimeter_start
G1 F1800.000 E4.11043
G92 E0
G1 X45.475 Y123.038 F7200.000
G1 F1800.000 E5.00000
G1 X46.525 Y123.038 F1200.000 E5.03494
G1 X46.525 Y124.088 E5.06988
G1 X45.475 Y124.088 E5.10481
G1 X45.475 Y123.238 E5.13310
G1 F1800.000 E0.13310
G92 E0
G1 X46.925 Y123.525 F7200.000
G1 F1800.000 E5.00000
G1 X46.925 Y124.488 F1200.000 E5.03193
G1 X45.075 Y124.488 E5.09348
G1 X45.075 Y122.638 E5.15503
G1 X56.075 Y122.638 E5.52112
G1 X55.188 Y123.525 E5.56300
G1 X47.125 Y123.525 E5.83128
G1 X46.125 Y123.525
; perimeter_end
; infill_start
G1 X46.750 Y123.075
G1 X55.000 Y123.088 F600.000 E6.14683
G1 X55.525 Y122.875 E6.16862
G1 X45.913 Y123.475 F7200.000
G1 X46.000 Y123.563 F600.000 E6.17387
G1 X45.913 Y123.638 E6.17880
; infill_end
; perimeter_start
G1 F1800.000 E1.17880
G92 E0
G1 X55.413 Y142.725 F7200.000
G1 F1800.000 E5.00000
G1 X46.363 Y142.725 F1200.000 E5.30100
G1 X46.363 Y138.988 E5.42541
G1 X56.563 Y138.988 E5.76465
G1 X56.563 Y143.788 E5.92428
G1 X55.413 Y143.788 E5.96251
G1 X55.413 Y142.925 E5.99109
G1 F1800.000 E0.99109
G92 E0
G1 X55.013 Y143.125 F7200.000
G1 F1800.000 E5.00000
G1 X45.963 Y143.125 F1200.000 E5.30100
G1 X45.963 Y138.588 E5.45202
G1 X56.963 Y138.588 E5.81786
G1 X56.963 Y144.188 E6.00410
G1 X55.013 Y144.188 E6.06894
G1 X55.013 Y143.325 E6.09752
G1 X55.013 Y142.325
; perimeter_end
; infill_start
G1 X55.888 Y142.800
G1 X55.988 Y142.900 F600.000 E6.10465
G1 X56.075 Y142.800 E6.11139
G1 X55.988 Y142.700
G1 X55.988 Y143.213 E6.13719
G1 X56.225 Y143.450 E6.15446
G1 X56.075 Y139.275 F7200.000
G1 X56.263 Y139.463 F1800.000 E6.16411
G1 X56.263 Y140.088 E6.18662
G1 X55.463 Y139.275 E6.22811
G1 X54.838 Y139.275 E6.25063
G1 X56.263 Y140.700 E6.32396
G1 X56.263 Y141.325 E6.34648
G1 X54.225 Y139.275 E6.45165
G1 X53.600 Y139.275 E6.47417
G1 X56.263 Y141.938 E6.61118
G1 X56.125 Y142.425 E6.62945
G1 X52.988 Y139.275 E6.79134
G1 X52.363 Y139.275 E6.81386
G1 X55.513 Y142.425 E6.97575
G1 X54.888 Y142.425 E6.99827
G1 X51.750 Y139.275 E7.16016
G1 X51.125 Y139.275 E7.18268
G1 X54.275 Y142.425 E7.34457
G1 X53.650 Y142.425 E7.36709
G1 X50.513 Y139.275 E7.52898
G1 X49.888 Y139.275 E7.55150
G1 X53.038 Y142.425 E7.71339
G1 X52.413 Y142.425 E7.73591
G1 X49.275 Y139.275 E7.89780
G1 X48.650 Y139.275 E7.92032
G1 X51.800 Y142.425 E8.08221
G1 X51.175 Y142.425 E8.10473
G1 X48.038 Y139.275 E8.26662
G1 X47.413 Y139.275 E8.28914
G1 X50.563 Y142.425 E8.45103
G1 X49.938 Y142.425 E8.47355
G1 X46.800 Y139.275 E8.63544
G1 X46.663 Y139.763 E8.65371
G1 X49.325 Y142.425 E8.79073
G1 X48.700 Y142.425 E8.81324
G1 X46.663 Y140.388 E8.91842
G1 X46.663 Y141.000 E8.94093
G1 X48.088 Y142.425 E9.01427
G1 X47.463 Y142.425 E9.03678
G1 X46.663 Y141.625 E9.07827
G1 X46.663 Y142.238 E9.10079
G1 X46.850 Y142.425 E9.11043
; infill_end
; perimeter_start
G1 F1800.000 E4.11043
G92 E0
G1 X46.363 Y148.588 F7200.000
G1 F1800.000 E5.00000
G1 X47.413 Y148.588 F1200.000 E5.03494
G1 X47.413 Y149.638 E5.06988
G1 X46.363 Y149.638 E5.10481
G1 X46.363 Y148.788 E5.13310
G1 F1800.000 E0.13310
G92 E0
G1 X47.813 Y149.075 F7200.000
G1 F1800.000 E5.00000
G1 X47.813 Y150.038 F1200.000 E5.03193
G1 X45.963 Y150.038 E5.09348
G1 X45.963 Y148.188 E5.15503
G1 X56.975 Y148.188 E5.52112
G1 X56.075 Y149.075 E5.56300
G1 X48.013 Y149.075 E5.83128
G1 X47.013 Y149.075
; perimeter_end
; infill_start
G1 X47.650 Y148.625
G1 X55.888 Y148.638 F600.000 E6.14683
G1 X56.425 Y148.425 E6.16862
G1 X46.800 Y149.025 F7200.000
G1 X46.888 Y149.113 F600.000 E6.17387
G1 X46.813 Y149.188 E6.17880
; infill_end
; perimeter_start
G1 F1800.000 E1.17880
G92 E0
G1 X46.363 Y132.113 F7200.000
G1 F1800.000 E5.00000
G1 X47.413 Y132.113 F1200.000 E5.03494
G1 X47.413 Y132.788 E5.05720
G1 X46.363 Y132.788 E5.09214
G1 X46.363 Y132.313 E5.10775
G1 F1800.000 E0.10775
G92 E0
G1 X47.813 Y132.675 F7200.000
G1 F1800.000 E5.00000
G1 X56.075 Y132.675 F1200.000 E5.27494
G1 X56.588 Y133.188 E5.29889
G1 X45.963 Y133.188 E5.65232
G1 X45.963 Y131.713 E5.70119
G1 X47.813 Y131.713 E5.76273
G1 X47.813 Y132.475 E5.78802
G1 X47.813 Y133.475
; perimeter_end
; infill_start
G1 X47.913 Y132.975
G1 X55.700 Y132.875 F600.000 E5.89917
G1 X47.075 Y132.450 F7200.000
G1 X46.700 Y132.450 F600.000 E5.90847
; infill_end
; perimeter_start
G1 F1800.000 E0.90847
G92 E0
G1 X78.838 Y102.700 F7200.000
G1 F1800.000 E5.00000
G1 X79.100 Y103.200 F720.000 E5.00949
G1 X79.100 Y103.638 E5.01663
G1 X79.100 Y104.463 F1200.000 E5.04407
G1 X78.838 Y104.963 E5.06305
G1 X77.525 Y104.963 E5.10670
G1 X77.263 Y104.463 E5.12569
G1 X77.263 Y103.200 E5.16740
G1 X77.525 Y102.700 E5.18638
G1 X77.638 Y102.700 E5.19012
G1 X78.638 Y102.700 E5.20675
G1 F1800.000 E0.20675
G92 E0
G1 X77.275 Y102.300 F7200.000
G1 F1800.000 E5.00000
G1 X78.275 Y102.300 F720.000 E5.01663
G1 X79.075 Y102.300 F1200.000 E5.04315
G1 X79.500 Y103.100 E5.07347
G1 X79.500 Y103.338 E5.08118
G1 X79.500 Y104.338 F1120.000 E5.11444
G1 X79.500 Y104.550 F1040.000 E5.12169
G1 X79.138 Y105.250 E5.14770
G1 X79.075 Y105.363 F960.000 E5.15201
G1 X78.213 Y105.363 E5.18096
G1 X77.275 Y105.363 F880.000 E5.21179
G1 X77.250 Y105.300 E5.21422
G1 X76.863 Y104.550 F800.000 E5.24211
G1 X76.863 Y104.400 E5.24748
G1 X76.863 Y103.400 F720.000 E5.28074
G1 X76.863 Y103.100 E5.28553
G1 X77.188 Y102.475 E5.29737
G1 X77.900 Y102.800
; perimeter_end
; perimeter_start
G1 F1800.000 E0.29737
G92 E0
G1 X89.963 Y104.238 F7200.000
G1 F1800.000 E5.00000
G1 X85.400 Y104.238 F1200.000 E5.15172
G1 X85.138 Y104.688 E5.16904
G1 X84.538 Y104.138 E5.19615
G1 X84.425 Y103.925 E5.20416
G1 X84.425 Y103.738 E5.21026
G1 X84.538 Y103.525 E5.21827
G1 X85.138 Y102.975 E5.24538
G1 X85.400 Y103.425 E5.26270
G1 X89.963 Y103.425 E5.41442
G1 X89.963 Y102.700 E5.43878
G1 X98.150 Y102.700 E5.71105
G1 X98.413 Y103.200 E5.73004
G1 X98.413 Y104.463 E5.77174
G1 X98.150 Y104.963 E5.79073
G1 X89.963 Y104.963 E6.06300
G1 X89.963 Y104.438 E6.08071
G1 F1800.000 E1.08071
G92 E0
G1 X89.563 Y103.025 F7200.000
G1 F1800.000 E5.00000
G1 X89.563 Y102.300 F1200.000 E5.02436
G1 X98.388 Y102.300 E5.31800
G1 X98.813 Y103.100 E5.34832
G1 X98.813 Y104.550 E5.39654
G1 X98.388 Y105.363 E5.42686
G1 X89.563 Y105.363 E5.72050
G1 X89.563 Y104.638 E5.74486
G1 X85.638 Y104.638 E5.87548
G1 X85.275 Y105.275 E5.89987
G1 X84.663 Y104.838 E5.92482
G1 X84.213 Y104.375 E5.94628
G1 X84.025 Y104.025 E5.95951
G1 X84.025 Y103.638 E5.97205
G1 X84.213 Y103.288 E5.98529
G1 X84.663 Y102.825 E6.00674
G1 X85.275 Y102.388 E6.03170
G1 X85.638 Y103.025 E6.05609
G1 X89.363 Y103.025 E6.18005
G1 X90.288 Y103.025
; perimeter_end
; infill_start
G1 X89.975 Y103.838
G1 X85.175 Y103.838 F600.000 E6.33999
G1 X85.000 Y103.863
G1 X85.050 Y104.138 E6.34710
G1 X84.963 Y104.063
G1 X85.050 Y103.388 E6.36802
G1 X90.463 Y104.663 F7200.000
G1 X90.250 Y104.463 F1800.000 E6.37874
G1 X90.250 Y103.825 E6.40240
G1 X91.100 Y104.663 E6.44661
G1 X91.725 Y104.663 E6.47029
G1 X90.250 Y103.188 E6.54799
G1 X90.700 Y103.000 E6.56606
G1 X92.363 Y104.663 E6.65369
G1 X93.000 Y104.663 E6.67737
G1 X91.338 Y103.000 E6.76503
G1 X91.975 Y103.000 E6.78869
G1 X93.638 Y104.663 E6.87638
G1 X94.263 Y104.663 E6.90006
G1 X92.600 Y103.000 E6.98778
G1 X93.238 Y103.000 E7.01144
G1 X94.900 Y104.663 E7.09918
G1 X95.538 Y104.663 E7.12286
G1 X93.875 Y103.000 E7.21063
G1 X94.513 Y103.000 E7.23429
G1 X96.175 Y104.663 E7.32209
G1 X96.813 Y104.663 E7.34577
G1 X95.138 Y103.000 E7.43359
G1 X95.775 Y103.000 E7.45725
G1 X97.438 Y104.663 E7.54510
G1 X98.000 Y104.588 E7.56619
G1 X96.413 Y103.000 E7.65016
G1 X97.050 Y103.000 E7.67382
G1 X98.113 Y104.063 E7.73004
G1 X98.113 Y103.438 E7.75370
G1 X97.675 Y103.000 E7.77646
; infill_end
; perimeter_start
G1 F1800.000 E2.77646
G92 E0
G1 X103.338 Y96.550 F7200.000
G1 F1800.000 E5.00000
G1 X104.338 Y96.550 F720.000 E5.01663
G1 X104.650 Y96.550 F1200.000 E5.02702
G1 X104.913 Y97.050 E5.04600
G1 X104.913 Y98.300 E5.08771
G1 X104.650 Y98.813 E5.10670
G1 X103.338 Y98.813 E5.15035
G1 X103.075 Y98.300 E5.16933
G1 X103.075 Y97.675 E5.19012
G1 X103.075 Y97.050 E5.20058
G1 X103.250 Y96.725 E5.20675
G1 F1800.000 E0.20675
G92 E0
G1 X103.100 Y99.213 F7200.000
G1 F1800.000 E5.00000
G1 X102.675 Y98.400 F720.000 E5.01516
G1 X102.675 Y98.313 E5.01663
G1 X102.675 Y96.950 F1200.000 E5.06191
G1 X102.938 Y96.438 E5.08118
G1 X103.100 Y96.150 F1120.000 E5.09223
G1 X103.763 Y96.150 E5.11444
G1 X104.763 Y96.150 F1040.000 E5.14770
G1 X104.888 Y96.150 F960.000 E5.15201
G1 X105.300 Y96.913 E5.18096
G1 X105.313 Y96.950 F880.000 E5.18232
G1 X105.313 Y97.913 E5.21422
G1 X105.313 Y98.400 F800.000 E5.23055
G1 X105.075 Y98.850 E5.24748
G1 X104.888 Y99.213 F720.000 E5.26087
G1 X104.300 Y99.213 E5.28074
G1 X103.300 Y99.213 E5.29737
G1 X103.263 Y98.425
; perimeter_end
; perimeter_start
G1 F1800.000 E0.29737
G92 E0
G1 X115.775 Y97.275 F7200.000
G1 F1800.000 E5.00000
G1 X115.775 Y96.550 F1200.000 E5.02436
G1 X123.963 Y96.550 E5.29663
G1 X124.225 Y97.050 E5.31562
G1 X124.225 Y98.300 E5.35733
G1 X123.963 Y98.813 E5.37631
G1 X115.775 Y98.813 E5.64858
G1 X115.775 Y98.075 E5.67294
G1 X111.213 Y98.075 E5.82466
G1 X110.963 Y98.538 E5.84198
G1 X110.350 Y97.988 E5.86909
G1 X110.250 Y97.775 E5.87710
G1 X110.250 Y97.588 E5.88320
G1 X110.350 Y97.375 E5.89121
G1 X110.963 Y96.825 E5.91832
G1 X111.213 Y97.275 E5.93564
G1 X115.575 Y97.275 E6.08071
G1 F1800.000 E1.08071
G92 E0
G1 X115.375 Y96.875 F7200.000
G1 F1800.000 E5.00000
G1 X115.375 Y96.150 F1200.000 E5.02436
G1 X124.200 Y96.150 E5.31800
G1 X124.625 Y96.950 E5.34832
G1 X124.625 Y98.400 E5.39654
G1 X124.200 Y99.213 E5.42686
G1 X115.375 Y99.213 E5.72050
G1 X115.375 Y98.475 E5.74486
G1 X111.450 Y98.475 E5.87548
G1 X111.088 Y99.113 E5.89987
G1 X110.475 Y98.688 E5.92482
G1 X110.025 Y98.225 E5.94628
G1 X109.850 Y97.863 E5.95951
G1 X109.850 Y97.488 E5.97205
G1 X110.025 Y97.138 E5.98529
G1 X110.475 Y96.675 E6.00674
G1 X111.088 Y96.238 E6.03170
G1 X111.450 Y96.875 E6.05609
G1 X115.175 Y96.875 E6.18005
G1 X116.100 Y96.875
; perimeter_end
; infill_start
G1 X115.788 Y97.675
G1 X111.000 Y97.675 F600.000 E6.33999
G1 X110.813 Y97.700
G1 X110.863 Y97.988 E6.34710
G1 X110.775 Y97.913
G1 X110.863 Y97.225 E6.36802
G1 X116.275 Y98.513 F7200.000
G1 X116.075 Y98.300 F1800.000 E6.37874
G1 X116.075 Y97.675 E6.40240
G1 X116.913 Y98.513 E6.44661
G1 X117.550 Y98.513 E6.47029
G1 X116.075 Y97.038 E6.54799
G1 X116.513 Y96.850 E6.56606
G1 X118.175 Y98.513 E6.65369
G1 X118.813 Y98.513 E6.67737
G1 X117.150 Y96.850 E6.76503
G1 X117.788 Y96.850 E6.78869
G1 X119.450 Y98.513 E6.87638
G1 X120.088 Y98.513 E6.90006
G1 X118.425 Y96.850 E6.98778
G1 X119.050 Y96.850 E7.01144
G1 X120.713 Y98.513 E7.09918
G1 X121.350 Y98.513 E7.12286
G1 X119.688 Y96.850 E7.21063
G1 X120.325 Y96.850 E7.23429
G1 X121.988 Y98.513 E7.32209
G1 X122.625 Y98.513 E7.34577
G1 X120.963 Y96.850 E7.43359
G1 X121.588 Y96.850 E7.45725
G1 X123.263 Y98.513 E7.54510
G1 X123.813 Y98.438 E7.56619
G1 X122.225 Y96.850 E7.65016
G1 X122.863 Y96.850 E7.67382
G1 X123.925 Y97.913 E7.73004
G1 X123.925 Y97.275 E7.75370
G1 X123.500 Y96.850 E7.77646
; infill_end
; perimeter_start
G1 F1800.000 E2.77646
G92 E0
G1 X114.400 Y71.925 F7200.000
G1 F1800.000 E5.00000
G1 X109.838 Y71.925 F1200.000 E5.15172
G1 X109.575 Y72.375 E5.16904
G1 X108.975 Y71.825 E5.19615
G1 X108.863 Y71.613 E5.20416
G1 X108.863 Y71.438 E5.21026
G1 X108.975 Y71.213 E5.21827
G1 X109.575 Y70.663 E5.24538
G1 X109.838 Y71.125 E5.26270
G1 X114.400 Y71.125 E5.41442
G1 X114.400 Y70.388 E5.43878
G1 X122.575 Y70.388 E5.71105
G1 X122.850 Y70.900 E5.73004
G1 X122.850 Y72.150 E5.77174
G1 X122.575 Y72.663 E5.79073
G1 X114.400 Y72.663 E6.06300
G1 X114.400 Y72.125 E6.08071
G1 F1800.000 E1.08071
G92 E0
G1 X114.000 Y72.325 F7200.000
G1 F1800.000 E5.00000
G1 X110.063 Y72.325 F1200.000 E5.13062
G1 X109.713 Y72.963 E5.15500
G1 X109.100 Y72.525 E5.17996
G1 X108.650 Y72.063 E5.20142
G1 X108.463 Y71.713 E5.21465
G1 X108.463 Y71.338 E5.22719
G1 X108.650 Y70.975 E5.24043
G1 X109.100 Y70.525 E5.26188
G1 X109.713 Y70.088 E5.28684
G1 X110.063 Y70.725 E5.31123
G1 X114.000 Y70.725 E5.44185
G1 X114.000 Y69.988 E5.46620
G1 X122.825 Y69.988 E5.75985
G1 X123.250 Y70.800 E5.79016
G1 X123.250 Y72.250 E5.83839
G1 X122.825 Y73.063 E5.86870
G1 X114.000 Y73.063 E6.16235
G1 X114.000 Y72.525 E6.18005
G1 X114.000 Y71.525
; perimeter_end
; infill_start
G1 X114.413 Y71.525
G1 X109.613 Y71.525 F600.000 E6.33999
G1 X109.438 Y71.550
G1 X109.488 Y71.838 E6.34710
G1 X109.400 Y71.750
G1 X109.475 Y71.075 E6.36802
G1 X114.900 Y72.350 F7200.000
G1 X114.688 Y72.150 F1800.000 E6.37874
G1 X114.688 Y71.513 E6.40240
G1 X115.525 Y72.350 E6.44661
G1 X116.163 Y72.350 E6.47029
G1 X114.688 Y70.875 E6.54799
G1 X115.138 Y70.688 E6.56606
G1 X116.800 Y72.350 E6.65369
G1 X117.438 Y72.350 E6.67737
G1 X115.775 Y70.688 E6.76503
G1 X116.413 Y70.688 E6.78869
G1 X118.075 Y72.350 E6.87638
G1 X118.700 Y72.350 E6.90006
G1 X117.038 Y70.688 E6.98778
G1 X117.675 Y70.688 E7.01144
G1 X119.338 Y72.363 E7.09918
G1 X119.975 Y72.363 E7.12286
G1 X118.313 Y70.688 E7.21063
G1 X118.950 Y70.688 E7.23429
G1 X120.613 Y72.363 E7.32209
G1 X121.238 Y72.363 E7.34577
G1 X119.575 Y70.688 E7.43359
G1 X120.213 Y70.688 E7.45725
G1 X121.875 Y72.363 E7.54510
G1 X122.438 Y72.288 E7.56619
G1 X120.850 Y70.688 E7.65016
G1 X121.488 Y70.688 E7.67382
G1 X122.550 Y71.763 E7.73004
G1 X122.550 Y71.125 E7.75370
G1 X122.113 Y70.688 E7.77646
; infill_end
; perimeter_start
G1 F1800.000 E2.77646
G92 E0
G1 X102.850 Y57.175 F7200.000
G1 F1800.000 E5.00000
G1 X102.850 Y56.800 F1200.000 E5.01231
G1 X119.750 Y56.800 E5.57463
G1 X119.750 Y57.175 E5.58694
G1 X103.050 Y57.175 E6.14261
G1 X103.038 Y56.850
; perimeter_end
; perimeter_start
G1 F1800.000 E1.14261
G92 E0
G1 X118.638 Y38.125 F7200.000
G1 F1800.000 E5.00000
G1 X101.725 Y38.125 F1200.000 E5.56231
G1 X101.725 Y37.763 E5.57463
G1 X118.638 Y37.763 E6.13694
G1 X118.638 Y37.925 E6.14261
G1 X117.938 Y37.725
; perimeter_end
; perimeter_start
G1 F1800.000 E1.14261
G92 E0
G1 X85.713 Y37.238 F7200.000
G1 F1800.000 E5.00000
G1 X85.713 Y37.613 F1200.000 E5.01231
G1 X68.800 Y37.613 E5.57463
G1 X68.800 Y37.238 E5.58694
G1 X85.513 Y37.238 E6.14261
G1 X85.525 Y37.563
; perimeter_end
; perimeter_start
G1 F1800.000 E1.14261
G92 E0
G1 X67.850 Y52.263 F7200.000
G1 F1800.000 E5.00000
G1 X67.850 Y51.888 F1200.000 E5.01231
G1 X84.750 Y51.888 E5.57463
G1 X84.750 Y52.263 E5.58694
G1 X68.050 Y52.263 E6.14261
G1 X68.038 Y51.938
; perimeter_end
; perimeter_start
G1 F1800.000 E1.14261
G92 E0
G1 X101.963 Y70.388 F7200.000
G1 F1800.000 E5.00000
G1 X102.963 Y70.388 F720.000 E5.01663
G1 X103.275 Y70.388 F1200.000 E5.02702
G1 X103.538 Y70.900 E5.04600
G1 X103.538 Y72.150 E5.08771
G1 X103.275 Y72.663 E5.10670
G1 X101.963 Y72.663 E5.15035
G1 X101.700 Y72.150 E5.16933
G1 X101.700 Y71.525 E5.19012
G1 X101.700 Y70.900 E5.20058
G1 X101.863 Y70.563 E5.20675
G1 F1800.000 E0.20675
G92 E0
G1 X101.713 Y73.063 F7200.000
G1 F1800.000 E5.00000
G1 X101.300 Y72.250 F720.000 E5.01516
G1 X101.300 Y72.163 E5.01663
G1 X101.300 Y70.800 F1200.000 E5.06191
G1 X101.563 Y70.288 E5.08118
G1 X101.713 Y69.988 F1120.000 E5.09223
G1 X102.388 Y69.988 E5.11444
G1 X103.388 Y69.988 F1040.000 E5.14770
G1 X103.513 Y69.988 F960.000 E5.15201
G1 X103.913 Y70.763 E5.18096
G1 X103.938 Y70.800 F880.000 E5.18232
G1 X103.938 Y71.763 E5.21422
G1 X103.938 Y72.250 F800.000 E5.23055
G1 X103.700 Y72.700 E5.24748
G1 X103.513 Y73.063 F720.000 E5.26087
G1 X102.913 Y73.063 E5.28074
G1 X101.913 Y73.063 E5.29737
G1 X101.875 Y72.275
; perimeter_end
; perimeter_start
G1 F1800.000 E0.29737
G92 E0
G1 X90.063 Y83.975 F7200.000
G1 F1800.000 E5.00000
G1 X85.500 Y83.975 F1200.000 E5.15172
G1 X85.250 Y84.425 E5.16904
G1 X84.650 Y83.875 E5.19615
G1 X84.538 Y83.663 E5.20416
G1 X84.538 Y83.475 E5.21026
G1 X84.650 Y83.263 E5.21827
G1 X85.250 Y82.713 E5.24538
G1 X85.500 Y83.163 E5.26270
G1 X90.063 Y83.163 E5.41442
G1 X90.063 Y82.438 E5.43878
G1 X98.250 Y82.438 E5.71105
G1 X98.513 Y82.938 E5.73004
G1 X98.513 Y84.200 E5.77174
G1 X98.250 Y84.700 E5.79073
G1 X90.063 Y84.700 E6.06300
G1 X90.063 Y84.175 E6.08071
G1 F1800.000 E1.08071
G92 E0
G1 X89.663 Y82.763 F7200.000
G1 F1800.000 E5.00000
G1 X89.663 Y82.038 F1200.000 E5.02436
G1 X98.488 Y82.038 E5.31800
G1 X98.913 Y82.838 E5.34832
G1 X98.913 Y84.288 E5.39654
G1 X98.488 Y85.100 E5.42686
G1 X89.663 Y85.100 E5.72050
G1 X89.663 Y84.375 E5.74486
G1 X85.738 Y84.375 E5.87548
G1 X85.375 Y85.013 E5.89987
G1 X84.763 Y84.575 E5.92482
G1 X84.313 Y84.113 E5.94628
G1 X84.138 Y83.763 E5.95951
G1 X84.138 Y83.375 E5.97205
G1 X84.313 Y83.025 E5.98529
G1 X84.763 Y82.563 E6.00674
G1 X85.375 Y82.125 E6.03170
G1 X85.738 Y82.763 E6.05609
G1 X89.463 Y82.763 E6.18005
G1 X90.400 Y82.763
; perimeter_end
; infill_start
G1 X90.075 Y83.575
G1 X85.288 Y83.575 F600.000 E6.33999
G1 X85.100 Y83.600
G1 X85.163 Y83.875 E6.34710
G1 X85.063 Y83.800
G1 X85.150 Y83.125 E6.36802
G1 X90.563 Y84.400 F7200.000
G1 X90.363 Y84.200 F1800.000 E6.37874
G1 X90.363 Y83.563 E6.40240
G1 X91.200 Y84.400 E6.44661
G1 X91.838 Y84.400 E6.47029
G1 X90.363 Y82.925 E6.54799
G1 X90.813 Y82.738 E6.56606
G1 X92.475 Y84.400 E6.65369
G1 X93.100 Y84.400 E6.67737
G1 X91.438 Y82.738 E6.76503
G1 X92.075 Y82.738 E6.78869
G1 X93.738 Y84.400 E6.87638
G1 X94.375 Y84.400 E6.90006
G1 X92.713 Y82.738 E6.98778
G1 X93.350 Y82.738 E7.01144
G1 X95.013 Y84.400 E7.09918
G1 X95.638 Y84.400 E7.12286
G1 X93.975 Y82.738 E7.21063
G1 X94.613 Y82.738 E7.23429
G1 X96.275 Y84.400 E7.32209
G1 X96.913 Y84.400 E7.34577
G1 X95.250 Y82.738 E7.43359
G1 X95.888 Y82.738 E7.45725
G1 X97.550 Y84.400 E7.54510
G1 X98.113 Y84.325 E7.56619
G1 X96.513 Y82.738 E7.65016
G1 X97.150 Y82.738 E7.67382
G1 X98.213 Y83.800 E7.73004
G1 X98.213 Y83.175 E7.75370
G1 X97.788 Y82.738 E7.77646
; infill_end
; perimeter_start
G1 F1800.000 E2.77646
G92 E0
G1 X77.625 Y84.700 F7200.000
G1 F1800.000 E5.00000
G1 X77.363 Y84.200 F720.000 E5.00949
G1 X77.363 Y83.763 E5.01663
G1 X77.363 Y82.938 F1200.000 E5.04407
G1 X77.625 Y82.438 E5.06305
G1 X78.938 Y82.438 E5.10670
G1 X79.200 Y82.938 E5.12569
G1 X79.200 Y84.200 E5.16740
G1 X78.938 Y84.700 E5.18638
G1 X78.825 Y84.700 E5.19012
G1 X77.825 Y84.700 E5.20675
G1 F1800.000 E0.20675
G92 E0
G1 X79.188 Y85.100 F7200.000
G1 F1800.000 E5.00000
G1 X78.188 Y85.100 F720.000 E5.01663
G1 X77.388 Y85.100 F1200.000 E5.04315
G1 X76.963 Y84.288 E5.07347
G1 X76.963 Y84.063 E5.08118
G1 X76.963 Y83.063 F1120.000 E5.11444
G1 X76.963 Y82.838 F1040.000 E5.12169
G1 X77.325 Y82.150 E5.14770
G1 X77.388 Y82.038 F960.000 E5.15201
G1 X78.250 Y82.038 E5.18096
G1 X79.188 Y82.038 F880.000 E5.21179
G1 X79.213 Y82.100 E5.21422
G1 X79.600 Y82.838 F800.000 E5.24211
G1 X79.600 Y83.000 E5.24748
G1 X79.600 Y84.000 F720.000 E5.28074
G1 X79.600 Y84.288 E5.28553
G1 X79.275 Y84.925 E5.29737
G1 X78.563 Y84.600
; perimeter_end
G1 F1800.000 E0.29737
G92 E0
; Layer: 4 Time: 100
G1 Z0.950 F7200.000
; Region: 0
; perimeter_start
G1 X45.213 Y52.988
G1 F1800.000 E5.00000
G1 X45.213 Y53.650 F1200.000 E5.02227
G1 X44.163 Y53.650 E5.05720
G1 X44.163 Y52.988 E5.07947
G1 X45.013 Y52.988 E5.10775
G1 F1800.000 E0.10775
G92 E0
G1 X45.613 Y53.550 F7200.000
G1 F1800.000 E5.00000
G1 X53.875 Y53.550 F1200.000 E5.27494
G1 X54.388 Y54.050 E5.29889
G1 X43.763 Y54.050 E5.65232
G1 X43.763 Y52.588 E5.70119
G1 X45.613 Y52.588 E5.76273
G1 X45.613 Y53.350 E5.78802
G1 X45.613 Y54.350
; perimeter_end
; infill_start
G1 X45.713 Y53.850
G1 X53.488 Y53.750 F600.000 E5.89917
G1 X44.875 Y53.313 F7200.000
G1 X44.500 Y53.325 F600.000 E5.90847
; infill_end
; perimeter_start
G1 F1800.000 E0.90847
G92 E0
G1 X53.213 Y63.600 F7200.000
G1 F1800.000 E5.00000
G1 X44.163 Y63.600 F1200.000 E5.30100
G1 X44.163 Y59.850 E5.42541
G1 X54.363 Y59.850 E5.76465
G1 X54.363 Y64.650 E5.92428
G1 X53.213 Y64.650 E5.96251
G1 X53.213 Y63.800 E5.99109
G1 F1800.000 E0.99109
G92 E0
G1 X52.813 Y64.000 F7200.000
G1 F1800.000 E5.00000
G1 X43.763 Y64.000 F1200.000 E5.30100
G1 X43.763 Y59.450 E5.45202
G1 X54.763 Y59.450 E5.81786
G1 X54.763 Y65.050 E6.00410
G1 X52.813 Y65.050 E6.06894
G1 X52.813 Y64.200 E6.09752
G1 X52.813 Y63.200
; perimeter_end
; infill_start
G1 X53.688 Y63.663
G1 X53.788 Y63.775 F600.000 E6.10465
G1 X53.875 Y63.675 E6.11139
G1 X53.788 Y63.575
G1 X53.788 Y64.075 E6.13719
G1 X54.013 Y64.325 E6.15446
G1 X54.063 Y63.113 F7200.000
G1 X53.875 Y63.300 F1800.000 E6.16411
G1 X53.250 Y63.300 E6.18662
G1 X54.063 Y62.488 E6.22811
G1 X54.063 Y61.875 E6.25063
G1 X52.638 Y63.300 E6.32396
G1 X52.013 Y63.300 E6.34648
G1 X54.063 Y61.250 E6.45165
G1 X54.063 Y60.638 E6.47417
G1 X51.400 Y63.300 E6.61118
G1 X50.775 Y63.300 E6.63370
G1 X53.925 Y60.150 E6.79559
G1 X53.313 Y60.150 E6.81811
G1 X50.163 Y63.300 E6.98000
G1 X49.538 Y63.300 E7.00252
G1 X52.688 Y60.150 E7.16441
G1 X52.075 Y60.150 E7.18693
G1 X48.925 Y63.300 E7.34882
G1 X48.300 Y63.300 E7.37134
G1 X51.450 Y60.150 E7.53323
G1 X50.838 Y60.150 E7.55575
G1 X47.688 Y63.300 E7.71764
G1 X47.063 Y63.300 E7.74016
G1 X50.213 Y60.150 E7.90205
G1 X49.600 Y60.150 E7.92457
G1 X46.450 Y63.300 E8.08646
G1 X45.825 Y63.300 E8.10898
G1 X48.975 Y60.150 E8.27087
G1 X48.350 Y60.150 E8.29339
G1 X45.213 Y63.300 E8.45528
G1 X44.588 Y63.300 E8.47780
G1 X47.738 Y60.150 E8.63969
G1 X47.113 Y60.150 E8.66221
G1 X44.450 Y62.813 E8.79923
G1 X44.450 Y62.200 E8.82174
G1 X46.500 Y60.150 E8.92692
G1 X45.875 Y60.150 E8.94943
G1 X44.450 Y61.575 E9.02277
G1 X44.450 Y60.963 E9.04528
G1 X45.263 Y60.150 E9.08677
G1 X44.638 Y60.150 E9.10929
G1 X44.450 Y60.338 E9.11893
; infill_end
; perimeter_start
G1 F1800.000 E4.11893
G92 E0
G1 X45.213 Y69.450 F7200.000
G1 F1800.000 E5.00000
G1 X45.213 Y70.500 F1200.000 E5.03494
G1 X44.163 Y70.500 E5.06988
G1 X44.163 Y69.450 E5.10481
G1 X45.013 Y69.450 E5.13310
G1 F1800.000 E0.13310
G92 E0
G1 X45.613 Y69.950 F7200.000
G1 F1800.000 E5.00000
G1 X45.613 Y70.900 F1200.000 E5.03193
G1 X43.763 Y70.900 E5.09348
G1 X43.763 Y69.050 E5.15503
G1 X54.763 Y69.050 E5.52112
G1 X53.875 Y69.950 E5.56300
G1 X45.813 Y69.950 E5.83128
G1 X44.813 Y69.950
; perimeter_end
; infill_start
G1 X45.438 Y69.500
G1 X53.688 Y69.513 F600.000 E6.14683
G1 X54.213 Y69.300 E6.16862
G1 X44.600 Y69.900 F7200.000
G1 X44.688 Y69.975 F600.000 E6.17387
G1 X44.600 Y70.063 E6.17880
; infill_end
; perimeter_start
G1 F1800.000 E1.17880
G92 E0
G1 X44.513 Y79.938 F7200.000
G1 F1800.000 E5.00000
G1 X44.513 Y79.263 F1200.000 E5.02227
G1 X45.563 Y79.263 E5.05720
G1 X45.563 Y79.938 E5.07947
G1 X44.713 Y79.938 E5.10775
G1 F1800.000 E0.10775
G92 E0
G1 X45.963 Y79.825 F7200.000
G1 F1800.000 E5.00000
G1 X54.238 Y79.825 F1200.000 E5.27494
G1 X54.738 Y80.338 E5.29889
G1 X44.113 Y80.338 E5.65232
G1 X44.113 Y78.863 E5.70119
G1 X45.963 Y78.863 E5.76273
G1 X45.963 Y79.625 E5.78802
G1 X45.963 Y80.625
; perimeter_end
; infill_start
G1 X46.063 Y80.125
G1 X53.850 Y80.025 F600.000 E5.89917
G1 X45.225 Y79.600 F7200.000
G1 X44.850 Y79.600 F600.000 E5.90847
; infill_end
; perimeter_start
G1 F1800.000 E0.90847
G92 E0
G1 X53.563 Y89.875 F7200.000
G1 F1800.000 E5.00000
G1 X44.513 Y89.875 F1200.000 E5.30100
G1 X44.513 Y86.138 E5.42541
G1 X54.713 Y86.138 E5.76465
G1 X54.713 Y90.938 E5.92428
G1 X53.563 Y90.938 E5.96251
G1 X53.563 Y90.075 E5.99109
G1 F1800.000 E0.99109
G92 E0
G1 X53.163 Y90.275 F7200.000
G1 F1800.000 E5.00000
G1 X44.113 Y90.275 F1200.000 E5.30100
G1 X44.113 Y85.738 E5.45202
G1 X55.113 Y85.738 E5.81786
G1 X55.113 Y91.338 E6.00410
G1 X53.163 Y91.338 E6.06894
G1 X53.163 Y90.475 E6.09752
G1 X53.163 Y89.475
; perimeter_end
; infill_start
G1 X54.050 Y89.950
G1 X54.138 Y90.050 F600.000 E6.10465
G1 X54.238 Y89.950 E6.11139
G1 X54.138 Y89.850
G1 X54.138 Y90.363 E6.13719
G1 X54.375 Y90.600 E6.15446
G1 X54.425 Y89.388 F7200.000
G1 X54.238 Y89.575 F1800.000 E6.16411
G1 X53.613 Y89.575 E6.18662
G1 X54.425 Y88.775 E6.22811
G1 X54.425 Y88.150 E6.25063
G1 X53.000 Y89.575 E6.32396
G1 X52.375 Y89.575 E6.34648
G1 X54.425 Y87.538 E6.45165
G1 X54.425 Y86.913 E6.47417
G1 X51.763 Y89.575 E6.61118
G1 X51.138 Y89.575 E6.63370
G1 X54.288 Y86.425 E6.79559
G1 X53.663 Y86.425 E6.81811
G1 X50.525 Y89.575 E6.98000
G1 X49.900 Y89.575 E7.00252
G1 X53.050 Y86.425 E7.16441
G1 X52.425 Y86.425 E7.18693
G1 X49.288 Y89.575 E7.34882
G1 X48.663 Y89.575 E7.37134
G1 X51.813 Y86.425 E7.53323
G1 X51.188 Y86.425 E7.55575
G1 X48.050 Y89.575 E7.71764
G1 X47.425 Y89.575 E7.74016
G1 X50.575 Y86.425 E7.90205
G1 X49.950 Y86.425 E7.92457
G1 X46.813 Y89.575 E8.08646
G1 X46.188 Y89.575 E8.10898
G1 X49.338 Y86.425 E8.27087
G1 X48.713 Y86.425 E8.29339
G1 X45.575 Y89.575 E8.45528
G1 X44.950 Y89.575 E8.47780
G1 X48.100 Y86.425 E8.63969
G1 X47.475 Y86.425 E8.66221
G1 X44.813 Y89.088 E8.79923
G1 X44.813 Y88.475 E8.82174
G1 X46.863 Y86.425 E8.92692
G1 X46.238 Y86.425 E8.94943
G1 X44.813 Y87.850 E9.02276
G1 X44.813 Y87.238 E9.04528
G1 X45.625 Y86.425 E9.08677
G1 X45.000 Y86.425 E9.10929
G1 X44.813 Y86.613 E9.11893
; infill_end
; perimeter_start
G1 F1800.000 E4.11893
G92 E0
G1 X44.513 Y95.738 F7200.000
G1 F1800.000 E5.00000
G1 X45.563 Y95.738 F1200.000 E5.03494
G1 X45.563 Y96.788 E5.06988
G1 X44.513 Y96.788 E5.10481
G1 X44.513 Y95.938 E5.13310
G1 F1800.000 E0.13310
G92 E0
G1 X45.963 Y96.225 F7200.000
G1 F1800.000 E5.00000
G1 X45.963 Y97.188 F1200.000 E5.03193
G1 X44.113 Y97.188 E5.09348
G1 X44.113 Y95.338 E5.15503
G1 X55.125 Y95.338 E5.52112
G1 X54.238 Y96.225 E5.56300
G1 X46.163 Y96.225 E5.83128
G1 X45.163 Y96.225
; perimeter_end
; infill_start
G1 X45.800 Y95.775
G1 X54.050 Y95.788 F600.000 E6.14683
G1 X54.575 Y95.575 E6.16862
G1 X44.963 Y96.175 F7200.000
G1 X45.038 Y96.263 F600.000 E6.17386
G1 X44.963 Y96.338 E6.17880
; infill_end
; perimeter_start
G1 F1800.000 E1.17880
G92 E0
G1 X46.525 Y106.563 F7200.000
G1 F1800.000 E5.00000
G1 X46.525 Y107.238 F1200.000 E5.02227
G1 X45.475 Y107.238 E5.05720
G1 X45.475 Y106.563 E5.07947
G1 X46.325 Y106.563 E5.10775
G1 F1800.000 E0.10775
G92 E0
G1 X46.925 Y107.125 F7200.000
G1 F1800.000 E5.00000
G1 X55.188 Y107.125 F1200.000 E5.27494
G1 X55.700 Y107.638 E5.29889
G1 X45.075 Y107.638 E5.65232
G1 X45.075 Y106.163 E5.70119
G1 X46.925 Y106.163 E5.76273
G1 X46.925 Y106.925 E5.78802
G1 X46.925 Y107.925
; perimeter_end
; infill_start
G1 X47.025 Y107.438
G1 X54.800 Y107.325 F600.000 E5.89917
G1 X46.188 Y106.900 F7200.000
G1 X45.813 Y106.900 F600.000 E5.90847
; infill_end
; perimeter_start
G1 F1800.000 E0.90847
G92 E0
G1 X54.525 Y117.175 F7200.000
G1 F1800.000 E5.00000
G1 X45.475 Y117.175 F1200.000 E5.30100
G1 X45.475 Y113.438 E5.42541
G1 X55.675 Y113.438 E5.76465
G1 X55.675 Y118.238 E5.92428
G1 X54.525 Y118.238 E5.96251
G1 X54.525 Y117.375 E5.99109
G1 F1800.000 E0.99109
G92 E0
G1 X54.125 Y117.575 F7200.000
G1 F1800.000 E5.00000
G1 X45.075 Y117.575 F1200.000 E5.30100
G1 X45.075 Y113.038 E5.45202
G1 X56.075 Y113.038 E5.81786
G1 X56.075 Y118.638 E6.00410
G1 X54.125 Y118.638 E6.06894
G1 X54.125 Y117.775 E6.09752
G1 X54.125 Y116.775
; perimeter_end
; infill_start
G1 X55.000 Y117.250
G1 X55.100 Y117.350 F600.000 E6.10465
G1 X55.188 Y117.250 E6.11139
G1 X55.088 Y117.150
G1 X55.100 Y117.663 E6.13719
G1 X55.325 Y117.913 E6.15446
G1 X55.375 Y116.688 F7200.000
G1 X55.188 Y116.875 F1800.000 E6.16411
G1 X54.563 Y116.875 E6.18662
G1 X55.375 Y116.075 E6.22811
G1 X55.375 Y115.450 E6.25063
G1 X53.950 Y116.875 E6.32396
G1 X53.325 Y116.875 E6.34648
G1 X55.375 Y114.838 E6.45165
G1 X55.375 Y114.213 E6.47417
G1 X52.713 Y116.875 E6.61118
G1 X52.088 Y116.875 E6.63370
G1 X55.238 Y113.738 E6.79559
G1 X54.613 Y113.738 E6.81811
G1 X51.475 Y116.875 E6.98000
G1 X50.850 Y116.875 E7.00252
G1 X54.000 Y113.738 E7.16441
G1 X53.375 Y113.738 E7.18693
G1 X50.238 Y116.875 E7.34882
G1 X49.613 Y116.875 E7.37134
G1 X52.763 Y113.738 E7.53323
G1 X52.138 Y113.738 E7.55575
G1 X49.000 Y116.875 E7.71764
G1 X48.375 Y116.875 E7.74016
G1 X51.525 Y113.738 E7.90205
G1 X50.900 Y113.738 E7.92457
G1 X47.763 Y116.875 E8.08646
G1 X47.138 Y116.875 E8.10898
G1 X50.288 Y113.738 E8.27087
G1 X49.663 Y113.738 E8.29339
G1 X46.525 Y116.875 E8.45528
G1 X45.900 Y116.875 E8.47780
G1 X49.050 Y113.738 E8.63969
G1 X48.425 Y113.738 E8.66221
G1 X45.763 Y116.400 E8.79923
G1 X45.763 Y115.775 E8.82174
G1 X47.813 Y113.738 E8.92692
G1 X47.188 Y113.738 E8.94943
G1 X45.763 Y115.163 E9.02277
G1 X45.763 Y114.538 E9.04528
G1 X46.575 Y113.738 E9.08677
G1 X45.950 Y113.738 E9.10929
G1 X45.763 Y113.925 E9.11893
; infill_end
; perimeter_start
G1 F1800.000 E4.11893
G92 E0
G1 X45.475 Y124.088 F7200.000
G1 F1800.000 E5.00000
G1 X45.475 Y123.038 F1200.000 E5.03494
G1 X46.525 Y123.038 E5.06988
G1 X46.525 Y124.088 E5.10481
G1 X45.675 Y124.088 E5.13310
G1 F1800.000 E0.13310
G92 E0
G1 X46.925 Y123.525 F7200.000
G1 F1800.000 E5.00000
G1 X46.925 Y124.488 F1200.000 E5.03193
G1 X45.075 Y124.488 E5.09348
G1 X45.075 Y122.638 E5.15503
G1 X56.075 Y122.638 E5.52112
G1 X55.188 Y123.525 E5.56300
G1 X47.125 Y123.525 E5.83128
G1 X46.125 Y123.525
; perimeter_end
; infill_start
G1 X46.750 Y123.075
G1 X55.000 Y123.088 F600.000 E6.14683
G1 X55.525 Y122.875 E6.16862
G1 X45.913 Y123.475 F7200.000
G1 X46.000 Y123.563 F600.000 E6.17387
G1 X45.913 Y123.638 E6.17880
; infill_end
; perimeter_start
G1 F1800.000 E1.17880
G92 E0
G1 X55.413 Y142.725 F7200.000
G1 F1800.000 E5.00000
G1 X46.363 Y142.725 F1200.000 E5.30100
G1 X46.363 Y138.988 E5.42541
G1 X56.563 Y138.988 E5.76465
G1 X56.563 Y143.788 E5.92428
G1 X55.413 Y143.788 E5.96251
G1 X55.413 Y142.925 E5.99109
G1 F1800.000 E0.99109
G92 E0
G1 X55.013 Y143.125 F7200.000
G1 F1800.000 E5.00000
G1 X45.963 Y143.125 F1200.000 E5.30100
G1 X45.963 Y138.588 E5.45202
G1 X56.963 Y138.588 E5.81786
G1 X56.963 Y144.188 E6.00410
G1 X55.013 Y144.188 E6.06894
G1 X55.013 Y143.325 E6.09752
G1 X55.013 Y142.325
; perimeter_end
; infill_start
G1 X55.888 Y142.800
G1 X55.988 Y142.900 F600.000 E6.10465
G1 X56.075 Y142.800 E6.11139
G1 X55.988 Y142.700
G1 X55.988 Y143.213 E6.13719
G1 X56.225 Y143.450 E6.15446
G1 X56.263 Y142.238 F7200.000
G1 X56.075 Y142.425 F1800.000 E6.16411
G1 X55.463 Y142.425 E6.18662
G1 X56.263 Y141.625 E6.22811
G1 X56.263 Y141.000 E6.25063
G1 X54.838 Y142.425 E6.32396
G1 X54.225 Y142.425 E6.34648
G1 X56.263 Y140.388 E6.45165
G1 X56.263 Y139.763 E6.47417
G1 X53.600 Y142.425 E6.61118
G1 X52.988 Y142.425 E6.63370
G1 X56.125 Y139.275 E6.79559
G1 X55.513 Y139.275 E6.81811
G1 X52.363 Y142.425 E6.98000
G1 X51.750 Y142.425 E7.00252
G1 X54.888 Y139.275 E7.16441
G1 X54.275 Y139.275 E7.18693
G1 X51.125 Y142.425 E7.34882
G1 X50.513 Y142.425 E7.37134
G1 X53.650 Y139.275 E7.53323
G1 X53.038 Y139.275 E7.55575
G1 X49.888 Y142.425 E7.71764
G1 X49.275 Y142.425 E7.74016
G1 X52.413 Y139.275 E7.90205
G1 X51.800 Y139.275 E7.92457
G1 X48.650 Y142.425 E8.08646
G1 X48.038 Y142.425 E8.10898
G1 X51.175 Y139.275 E8.27087
G1 X50.563 Y139.275 E8.29339
G1 X47.413 Y142.425 E8.45528
G1 X46.800 Y142.425 E8.47780
G1 X49.938 Y139.275 E8.63969
G1 X49.325 Y139.275 E8.66221
G1 X46.663 Y141.938 E8.79923
G1 X46.663 Y141.325 E8.82174
G1 X48.700 Y139.275 E8.92692
G1 X48.088 Y139.275 E8.94943
G1 X46.663 Y140.700 E9.02277
G1 X46.663 Y140.088 E9.04528
G1 X47.463 Y139.275 E9.08677
G1 X46.850 Y139.275 E9.10929
G1 X46.663 Y139.463 E9.11893
; infill_end
; perimeter_start
G1 F1800.000 E4.11893
G92 E0
G1 X46.363 Y148.588 F7200.000
G1 F1800.000 E5.00000
G1 X47.413 Y148.588 F1200.000 E5.03494
G1 X47.413 Y149.638 E5.06988
G1 X46.363 Y149.638 E5.10481
G1 X46.363 Y148.788 E5.13310
G1 F1800.000 E0.13310
G92 E0
G1 X47.813 Y149.075 F7200.000
G1 F1800.000 E5.00000
G1 X47.813 Y150.038 F1200.000 E5.03193
G1 X45.963 Y150.038 E5.09348
G1 X45.963 Y148.188 E5.15503
G1 X56.975 Y148.188 E5.52112
G1 X56.075 Y149.075 E5.56300
G1 X48.013 Y149.075 E5.83128
G1 X47.013 Y149.075
; perimeter_end
; infill_start
G1 X47.650 Y148.625
G1 X55.888 Y148.638 F600.000 E6.14683
G1 X56.425 Y148.425 E6.16862
G1 X46.800 Y149.025 F7200.000
G1 X46.888 Y149.113 F600.000 E6.17387
G1 X46.813 Y149.188 E6.17880
; infill_end
; perimeter_start
G1 F1800.000 E1.17880
G92 E0
G1 X46.363 Y132.113 F7200.000
G1 F1800.000 E5.00000
G1 X47.413 Y132.113 F1200.000 E5.03494
G1 X47.413 Y132.788 E5.05720
G1 X46.363 Y132.788 E5.09214
G1 X46.363 Y132.313 E5.10775
G1 F1800.000 E0.10775
G92 E0
G1 X47.813 Y132.675 F7200.000
G1 F1800.000 E5.00000
G1 X56.075 Y132.675 F1200.000 E5.27494
G1 X56.588 Y133.188 E5.29889
G1 X45.963 Y133.188 E5.65232
G1 X45.963 Y131.713 E5.70119
G1 X47.813 Y131.713 E5.76273
G1 X47.813 Y132.475 E5.78802
G1 X47.813 Y133.475
; perimeter_end
; infill_start
G1 X47.913 Y132.975
G1 X55.700 Y132.875 F600.000 E5.89917
G1 X47.075 Y132.450 F7200.000
G1 X46.700 Y132.450 F600.000 E5.90847
; infill_end
; perimeter_start
G1 F1800.000 E0.90847
G92 E0
G1 X78.875 Y105.175 F7200.000
G1 F1800.000 E5.00000
G1 X77.875 Y105.175 F720.000 E5.01663
G1 X77.663 Y105.175 F1200.000 E5.02364
G1 X77.488 Y105.175 F1120.000 E5.02951
G1 X77.263 Y104.825 E5.04336
G1 X77.263 Y104.413 E5.05690
G1 X77.263 Y103.413 F1040.000 E5.09016
G1 X77.263 Y102.838 F960.000 E5.10939
G1 X77.488 Y102.488 E5.12324
G1 X77.488 Y102.488 E5.12342
G1 X78.488 Y102.488 F880.000 E5.15668
G1 X78.875 Y102.488 F800.000 E5.16938
G1 X79.100 Y102.838 E5.18323
G1 X79.100 Y103.038 E5.18994
G1 X79.100 Y104.038 F720.000 E5.22320
G1 X79.100 Y104.825 E5.23623
G1 X78.988 Y105.000 E5.23983
G1 F1800.000 E0.23983
G92 E0
G1 X79.088 Y105.575 F7200.000
G1 F1800.000 E5.00000
G1 X78.088 Y105.575 F720.000 E5.01663
G1 X77.263 Y105.575 F1200.000 E5.04399
G1 X76.863 Y104.938 E5.06900
G1 X76.863 Y103.625 E5.11297
G1 X76.863 Y102.725 F1120.000 E5.14289
G1 X76.913 Y102.638 E5.14623
G1 X77.263 Y102.088 F1040.000 E5.16790
G1 X77.613 Y102.088 E5.17949
G1 X78.613 Y102.088 F960.000 E5.21275
G1 X79.088 Y102.088 F880.000 E5.22852
G1 X79.375 Y102.525 E5.24601
G1 X79.500 Y102.725 F800.000 E5.25354
G1 X79.500 Y103.488 E5.27927
G1 X79.500 Y104.488 F720.000 E5.31253
G1 X79.500 Y104.938 E5.31997
G1 X79.200 Y105.400 E5.32916
G1 X78.488 Y105.050
; perimeter_end
; perimeter_start
G1 F1800.000 E0.32916
G92 E0
G1 X89.963 Y103.113 F7200.000
G1 F1800.000 E5.00000
G1 X89.963 Y102.488 F1200.000 E5.02055
G1 X98.188 Y102.488 E5.29407
G1 X98.413 Y102.838 E5.30792
G1 X98.413 Y104.825 E5.37395
G1 X98.188 Y105.175 E5.38780
G1 X89.963 Y105.175 E5.66132
G1 X89.963 Y104.550 E5.68187
G1 X85.425 Y104.550 E5.83260
G1 X85.163 Y104.950 E5.84857
G1 X84.713 Y104.675 E5.86620
G1 X84.138 Y104.188 E5.89133
G1 X83.938 Y103.825 E5.90490
G1 X84.200 Y103.400 E5.92165
G1 X85.163 Y102.713 E5.96109
G1 X85.425 Y103.113 E5.97706
G1 X89.763 Y103.113 E6.12113
G1 F1800.000 E1.12113
G92 E0
G1 X89.563 Y102.713 F7200.000
G1 F1800.000 E5.00000
G1 X89.563 Y102.088 F1200.000 E5.02055
G1 X98.400 Y102.088 E5.31461
G1 X98.813 Y102.725 E5.33963
G1 X98.813 Y104.938 E5.41352
G1 X98.400 Y105.575 E5.43853
G1 X89.563 Y105.575 E5.73259
G1 X89.563 Y104.950 E5.75315
G1 X85.638 Y104.950 E5.88343
G1 X85.275 Y105.500 E5.90520
G1 X84.475 Y105.000 E5.93673
G1 X83.838 Y104.463 E5.96450
G1 X83.588 Y104.113 E5.97879
G1 X83.525 Y103.825 E5.98828
G1 X83.588 Y103.550 E5.99768
G1 X83.913 Y103.125 E6.01558
G1 X84.475 Y102.663 E6.03977
G1 X85.275 Y102.163 E6.07135
G1 X85.638 Y102.713 E6.09312
G1 X89.363 Y102.713 E6.21676
G1 X90.175 Y102.713
; perimeter_end
; infill_start
G1 X90.425 Y102.813
G1 X97.938 Y102.788 F1800.000 E6.49250
G1 X97.938 Y102.788
G1 X90.438 Y102.800 E6.76822
G1 X90.425 Y104.875 F7200.000
G1 X97.938 Y104.863 F1800.000 E7.04374
G1 X98.113 Y104.675
G1 X97.913 Y104.875 E7.05420
G1 X97.488 Y104.663 E7.07167
G1 X98.113 Y104.050 E7.10425
G1 X98.113 Y103.413 E7.12766
G1 X96.863 Y104.663 E7.19332
G1 X96.663 Y104.863
G1 X96.650 Y104.875 E7.19410
G1 X96.225 Y104.663
G1 X97.900 Y103.000 E7.28142
G1 X97.263 Y103.000 E7.30483
G1 X95.600 Y104.663 E7.39213
G1 X95.400 Y104.863
G1 X95.388 Y104.875 E7.39290
G1 X94.975 Y104.663
G1 X96.638 Y103.000 E7.48018
G1 X96.000 Y103.000 E7.50358
G1 X94.338 Y104.663 E7.59083
G1 X94.138 Y104.863
G1 X94.125 Y104.875 E7.59160
G1 X93.713 Y104.663
G1 X95.375 Y103.000 E7.67882
G1 X94.738 Y103.000 E7.70223
G1 X93.075 Y104.663 E7.78942
G1 X92.875 Y104.863
G1 X92.863 Y104.875 E7.79020
G1 X92.450 Y104.663
G1 X94.113 Y103.000 E7.87736
G1 X93.475 Y103.000 E7.90077
G1 X91.813 Y104.663 E7.98791
G1 X91.613 Y104.863
G1 X91.600 Y104.875 E7.98868
G1 X91.188 Y104.663
G1 X92.850 Y103.000 E8.07579
G1 X92.213 Y103.000 E8.09920
G1 X90.550 Y104.663 E8.18629
G1 X90.350 Y104.863
G1 X90.338 Y104.875 E8.18706
G1 X90.250 Y104.325
G1 X91.588 Y103.000 E8.25678
G1 X90.950 Y103.000 E8.28019
G1 X89.700 Y104.263 E8.34613
G1 X89.063 Y104.263
G1 X89.925 Y103.400 E8.39095
G1 X90.250 Y103.063
G1 X90.325 Y103.000 E8.39447
G1 X89.288 Y103.400 F7200.000
G1 X88.438 Y104.263 F1800.000 E8.43929
G1 X87.800 Y104.263 E8.46269
G1 X88.663 Y103.400 E8.50751
G1 X88.025 Y103.400 E8.53092
G1 X87.175 Y104.263 E8.57574
G1 X86.538 Y104.263 E8.59914
G1 X87.400 Y103.400 E8.64396
G1 X86.763 Y103.400 E8.66737
G1 X85.913 Y104.263 E8.71218
G1 X85.275 Y104.263 E8.73559
G1 X86.138 Y103.400 E8.78041
G1 X85.500 Y103.400 E8.80381
G1 X84.663 Y104.250 E8.84790
G1 X84.325 Y103.950 E8.86451
G1 X85.113 Y103.163 E8.90586
G1 X85.238 Y104.300 E8.94804
G1 X85.000 Y104.538 E8.96051
G1 X90.975 Y104.875 F7200.000
G1 X90.988 Y104.863 F1800.000 E8.96129
G1 X92.238 Y104.875 F7200.000
G1 X92.250 Y104.863 F1800.000 E8.96206
G1 X93.500 Y104.875 F7200.000
G1 X93.513 Y104.863 F1800.000 E8.96283
G1 X94.763 Y104.875 F7200.000
G1 X94.775 Y104.863 F1800.000 E8.96360
G1 X96.025 Y104.875 F7200.000
G1 X96.038 Y104.863 F1800.000 E8.96438
G1 X97.288 Y104.875 F7200.000
G1 X97.300 Y104.863 F1800.000 E8.96515
; infill_end
; perimeter_start
G1 F1800.000 E3.96515
G92 E0
G1 X103.300 Y96.338 F7200.000
G1 F1800.000 E5.00000
G1 X104.300 Y96.338 F720.000 E5.01663
G1 X104.513 Y96.338 F1200.000 E5.02364
G1 X104.688 Y96.338 F1120.000 E5.02951
G1 X104.913 Y96.688 E5.04336
G1 X104.913 Y97.088 E5.05690
G1 X104.913 Y98.088 F1040.000 E5.09016
G1 X104.913 Y98.675 F960.000 E5.10939
G1 X104.688 Y99.025 E5.12324
G1 X104.688 Y99.025 E5.12342
G1 X103.688 Y99.025 F880.000 E5.15668
G1 X103.300 Y99.025 F800.000 E5.16938
G1 X103.075 Y98.675 E5.18323
G1 X103.075 Y98.475 E5.18994
G1 X103.075 Y97.475 F720.000 E5.22320
G1 X103.075 Y96.688 E5.23623
G1 X103.188 Y96.500 E5.23983
G1 F1800.000 E0.23983
G92 E0
G1 X103.088 Y95.938 F7200.000
G1 F1800.000 E5.00000
G1 X104.088 Y95.938 F720.000 E5.01663
G1 X104.900 Y95.938 F1200.000 E5.04399
G1 X105.313 Y96.563 E5.06900
G1 X105.313 Y97.888 E5.11297
G1 X105.313 Y98.788 F1120.000 E5.14289
G1 X105.263 Y98.875 E5.14623
G1 X104.900 Y99.425 F1040.000 E5.16790
G1 X104.563 Y99.425 E5.17949
G1 X103.563 Y99.425 F960.000 E5.21275
G1 X103.088 Y99.425 F880.000 E5.22852
G1 X102.800 Y98.975 E5.24601
G1 X102.675 Y98.788 F800.000 E5.25354
G1 X102.675 Y98.013 E5.27927
G1 X102.675 Y97.013 F720.000 E5.31253
G1 X102.675 Y96.563 E5.31997
G1 X102.975 Y96.100 E5.32916
G1 X103.688 Y96.463
; perimeter_end
; perimeter_start
G1 F1800.000 E0.32916
G92 E0
G1 X115.775 Y96.950 F7200.000
G1 F1800.000 E5.00000
G1 X115.775 Y96.338 F1200.000 E5.02055
G1 X124.000 Y96.338 E5.29407
G1 X124.225 Y96.688 E5.30792
G1 X124.225 Y98.675 E5.37395
G1 X124.000 Y99.025 E5.38780
G1 X115.775 Y99.025 E5.66132
G1 X115.775 Y98.400 E5.68187
G1 X111.238 Y98.400 E5.83260
G1 X110.975 Y98.800 E5.84857
G1 X110.525 Y98.525 E5.86620
G1 X109.950 Y98.038 E5.89133
G1 X109.750 Y97.675 E5.90490
G1 X110.013 Y97.250 E5.92165
G1 X110.975 Y96.550 E5.96109
G1 X111.238 Y96.950 E5.97706
G1 X115.575 Y96.950 E6.12113
G1 F1800.000 E1.12113
G92 E0
G1 X115.375 Y96.550 F7200.000
G1 F1800.000 E5.00000
G1 X115.375 Y95.938 F1200.000 E5.02055
G1 X124.213 Y95.938 E5.31461
G1 X124.625 Y96.563 E5.33963
G1 X124.625 Y98.788 E5.41352
G1 X124.213 Y99.425 E5.43853
G1 X115.375 Y99.425 E5.73259
G1 X115.375 Y98.800 E5.75315
G1 X111.463 Y98.800 E5.88343
G1 X111.100 Y99.350 E5.90520
G1 X110.288 Y98.850 E5.93673
G1 X109.650 Y98.300 E5.96450
G1 X109.400 Y97.950 E5.97879
G1 X109.338 Y97.675 E5.98828
G1 X109.400 Y97.400 E5.99768
G1 X109.725 Y96.975 E6.01558
G1 X110.288 Y96.513 E6.03977
G1 X111.100 Y96.013 E6.07135
G1 X111.463 Y96.550 E6.09312
G1 X115.175 Y96.550 E6.21676
G1 X115.988 Y96.550
; perimeter_end
; infill_start
G1 X116.238 Y96.650
G1 X123.750 Y96.638 F1800.000 E6.49250
G1 X123.763 Y96.638
G1 X116.250 Y96.650 E6.76822
G1 X116.238 Y98.725 F7200.000
G1 X123.750 Y98.713 F1800.000 E7.04374
G1 X123.925 Y98.525
G1 X123.725 Y98.725 E7.05420
G1 X123.300 Y98.513 E7.07167
G1 X123.925 Y97.888 E7.10425
G1 X123.925 Y97.263 E7.12766
G1 X122.675 Y98.513 E7.19332
G1 X122.475 Y98.713
G1 X122.463 Y98.725 E7.19410
G1 X122.050 Y98.513
G1 X123.713 Y96.850 E7.28142
G1 X123.075 Y96.850 E7.30483
G1 X121.413 Y98.513 E7.39213
G1 X121.213 Y98.713
G1 X121.200 Y98.725 E7.39290
G1 X120.788 Y98.513
G1 X122.450 Y96.850 E7.48018
G1 X121.813 Y96.850 E7.50358
G1 X120.150 Y98.513 E7.59083
G1 X119.963 Y98.713
G1 X119.938 Y98.725 E7.59160
G1 X119.525 Y98.513
G1 X121.188 Y96.850 E7.67882
G1 X120.550 Y96.850 E7.70223
G1 X118.888 Y98.513 E7.78942
G1 X118.700 Y98.713
G1 X118.675 Y98.725 E7.79020
G1 X118.263 Y98.513
G1 X119.925 Y96.850 E7.87736
G1 X119.288 Y96.850 E7.90077
G1 X117.638 Y98.513 E7.98791
G1 X117.438 Y98.713
G1 X117.413 Y98.725 E7.98868
G1 X117.000 Y98.513
G1 X118.663 Y96.850 E8.07580
G1 X118.025 Y96.850 E8.09920
G1 X116.375 Y98.513 E8.18629
G1 X116.175 Y98.713
G1 X116.150 Y98.725 E8.18706
G1 X116.075 Y98.175
G1 X117.400 Y96.850 E8.25678
G1 X116.775 Y96.850 E8.28019
G1 X115.513 Y98.100 E8.34613
G1 X114.875 Y98.100
G1 X115.738 Y97.250 E8.39095
G1 X116.075 Y96.913
G1 X116.138 Y96.850 E8.39447
G1 X115.100 Y97.250 F7200.000
G1 X114.250 Y98.100 F1800.000 E8.43929
G1 X113.625 Y98.100 E8.46269
G1 X114.475 Y97.250 E8.50751
G1 X113.838 Y97.250 E8.53092
G1 X112.988 Y98.100 E8.57574
G1 X112.363 Y98.100 E8.59914
G1 X113.213 Y97.250 E8.64396
G1 X112.575 Y97.250 E8.66737
G1 X111.725 Y98.100 E8.71218
G1 X111.100 Y98.100 E8.73559
G1 X111.950 Y97.250 E8.78041
G1 X111.313 Y97.250 E8.80382
G1 X110.475 Y98.088 E8.84790
G1 X110.138 Y97.800 E8.86451
G1 X110.925 Y97.013 E8.90587
G1 X111.063 Y98.138 F7200.000
G1 X110.825 Y98.375 F1800.000 E8.91833
G1 X116.788 Y98.725 F7200.000
G1 X116.800 Y98.713 F1800.000 E8.91911
G1 X118.050 Y98.725 F7200.000
G1 X118.063 Y98.713 F1800.000 E8.91988
G1 X119.313 Y98.725 F7200.000
G1 X119.325 Y98.713 F1800.000 E8.92065
G1 X120.575 Y98.725 F7200.000
G1 X120.588 Y98.713 F1800.000 E8.92143
G1 X121.838 Y98.725 F7200.000
G1 X121.850 Y98.713 F1800.000 E8.92220
G1 X123.100 Y98.725 F7200.000
G1 X123.113 Y98.713 F1800.000 E8.92297
; infill_end
; perimeter_start
G1 F1800.000 E3.92297
G92 E0
G1 X114.400 Y70.800 F7200.000
G1 F1800.000 E5.00000
G1 X114.400 Y70.175 F1200.000 E5.02055
G1 X122.613 Y70.175 E5.29407
G1 X122.850 Y70.525 E5.30792
G1 X122.850 Y72.513 E5.37395
G1 X122.613 Y72.863 E5.38780
G1 X114.400 Y72.863 E5.66132
G1 X114.400 Y72.250 E5.68187
G1 X109.863 Y72.250 E5.83260
G1 X109.600 Y72.650 E5.84857
G1 X109.150 Y72.363 E5.86620
G1 X108.575 Y71.875 E5.89133
G1 X108.375 Y71.525 E5.90490
G1 X108.638 Y71.100 E5.92165
G1 X109.600 Y70.400 E5.96109
G1 X109.863 Y70.800 E5.97706
G1 X114.200 Y70.800 E6.12113
G1 F1800.000 E1.12113
G92 E0
G1 X114.000 Y72.650 F7200.000
G1 F1800.000 E5.00000
G1 X110.075 Y72.650 F1200.000 E5.13029
G1 X109.713 Y73.188 E5.15206
G1 X108.913 Y72.688 E5.18359
G1 X108.275 Y72.150 E5.21135
G1 X108.025 Y71.800 E5.22565
G1 X107.963 Y71.525 E5.23514
G1 X108.025 Y71.250 E5.24454
G1 X108.350 Y70.813 E5.26243
G1 X108.913 Y70.363 E5.28663
G1 X109.713 Y69.850 E5.31820
G1 X110.075 Y70.400 E5.33997
G1 X114.000 Y70.400 E5.47026
G1 X114.000 Y69.775 E5.49082
G1 X122.838 Y69.775 E5.78488
G1 X123.250 Y70.413 E5.80989
G1 X123.250 Y72.638 E5.88378
G1 X122.838 Y73.263 E5.90880
G1 X114.000 Y73.263 E6.20286
G1 X114.000 Y72.850 E6.21676
G1 X114.000 Y71.850
; perimeter_end
; infill_start
G1 X114.863 Y72.563 F7200.000
G1 X122.375 Y72.550 F1800.000 E6.49228
G1 X122.375 Y70.475 F7200.000
G1 X114.863 Y70.500 F1800.000 E6.76802
G1 X114.875 Y70.488
G1 X122.375 Y70.475 E7.04374
G1 X122.550 Y72.363 F7200.000
G1 X122.350 Y72.563 F1800.000 E7.05420
G1 X121.925 Y72.363 E7.07167
G1 X122.550 Y71.738 E7.10425
G1 X122.550 Y71.113 E7.12766
G1 X121.300 Y72.363 E7.19332
G1 X121.100 Y72.550
G1 X121.088 Y72.563 E7.19410
G1 X120.663 Y72.363
G1 X122.325 Y70.688 E7.28142
G1 X121.700 Y70.688 E7.30483
G1 X120.038 Y72.363 E7.39213
G1 X119.838 Y72.550
G1 X119.825 Y72.563 E7.39290
G1 X119.400 Y72.363
G1 X121.063 Y70.688 E7.48018
G1 X120.438 Y70.688 E7.50358
G1 X118.775 Y72.350 E7.59083
G1 X118.575 Y72.550
G1 X118.563 Y72.563 E7.59160
G1 X118.138 Y72.350
G1 X119.800 Y70.688 E7.67882
G1 X119.175 Y70.688 E7.70223
G1 X117.513 Y72.350 E7.78942
G1 X117.313 Y72.550
G1 X117.300 Y72.563 E7.79020
G1 X116.888 Y72.350
G1 X118.550 Y70.688 E7.87736
G1 X117.913 Y70.688 E7.90077
G1 X116.250 Y72.350 E7.98791
G1 X116.050 Y72.550
G1 X116.038 Y72.563 E7.98868
G1 X115.625 Y72.350
G1 X117.288 Y70.688 E8.07580
G1 X116.650 Y70.688 E8.09920
G1 X114.988 Y72.350 E8.18629
G1 X114.788 Y72.550
G1 X114.775 Y72.563 E8.18706
G1 X114.688 Y72.025
G1 X116.025 Y70.688 E8.25678
G1 X115.388 Y70.688 E8.28019
G1 X114.138 Y71.950 E8.34613
G1 X113.500 Y71.950
G1 X114.350 Y71.100 E8.39095
G1 X114.688 Y70.763
G1 X114.763 Y70.688 E8.39447
G1 X113.725 Y71.100 F7200.000
G1 X112.875 Y71.950 F1800.000 E8.43929
G1 X112.238 Y71.950 E8.46269
G1 X113.100 Y71.100 E8.50751
G1 X112.463 Y71.100 E8.53092
G1 X111.613 Y71.950 E8.57574
G1 X110.975 Y71.950 E8.59914
G1 X111.838 Y71.100 E8.64396
G1 X111.200 Y71.100 E8.66737
G1 X110.350 Y71.950 E8.71218
G1 X109.713 Y71.950 E8.73559
G1 X110.575 Y71.100 E8.78041
G1 X109.938 Y71.100 E8.80381
G1 X109.100 Y71.938 E8.84790
G1 X108.763 Y71.650 E8.86451
G1 X109.550 Y70.863 E8.90586
G1 X109.675 Y71.988 F7200.000
G1 X109.438 Y72.225 F1800.000 E8.91833
G1 X115.413 Y72.563 F7200.000
G1 X115.425 Y72.550 F1800.000 E8.91911
G1 X116.675 Y72.563 F7200.000
G1 X116.688 Y72.550 F1800.000 E8.91988
G1 X117.938 Y72.563 F7200.000
G1 X117.950 Y72.550 F1800.000 E8.92065
G1 X119.188 Y72.563 F7200.000
G1 X119.213 Y72.550 F1800.000 E8.92143
G1 X120.450 Y72.563 F7200.000
G1 X120.475 Y72.550 F1800.000 E8.92220
G1 X121.713 Y72.563 F7200.000
G1 X121.738 Y72.550 F1800.000 E8.92297
; infill_end
; perimeter_start
G1 F1800.000 E3.92297
G92 E0
G1 X119.750 Y57.175 F7200.000
G1 F1800.000 E5.00000
G1 X102.563 Y57.175 F1200.000 E5.57182
G1 X102.563 Y56.800 E5.58414
G1 X119.750 Y56.800 E6.15596
G1 X119.750 Y56.975 E6.16162
G1 X119.063 Y56.775
; perimeter_end
; perimeter_start
G1 F1800.000 E1.16162
G92 E0
G1 X101.438 Y38.125 F7200.000
G1 F1800.000 E5.00000
G1 X101.438 Y37.763 F1200.000 E5.01231
G1 X118.638 Y37.763 E5.58414
G1 X118.638 Y38.125 E5.59645
G1 X101.638 Y38.125 E6.16162
G1 X101.625 Y37.813
; perimeter_end
; perimeter_start
G1 F1800.000 E1.16162
G92 E0
G1 X85.713 Y37.238 F7200.000
G1 F1800.000 E5.00000
G1 X85.713 Y37.613 F1200.000 E5.01231
G1 X68.513 Y37.613 E5.58414
G1 X68.513 Y37.238 E5.59645
G1 X85.513 Y37.238 E6.16162
G1 X85.525 Y37.563
; perimeter_end
; perimeter_start
G1 F1800.000 E1.16162
G92 E0
G1 X67.563 Y51.888 F7200.000
G1 F1800.000 E5.00000
G1 X84.750 Y51.888 F1200.000 E5.57182
G1 X84.750 Y52.263 E5.58414
G1 X67.563 Y52.263 E6.15596
G1 X67.563 Y52.088 E6.16162
G1 X68.250 Y52.288
; perimeter_end
; perimeter_start
G1 F1800.000 E1.16162
G92 E0
G1 X101.925 Y72.863 F7200.000
G1 F1800.000 E5.00000
G1 X101.700 Y72.513 F720.000 E5.00693
G1 X101.700 Y71.938 E5.01663
G1 X101.700 Y71.725 F1200.000 E5.02364
G1 X101.700 Y70.725 F1120.000 E5.05690
G1 X101.700 Y70.525 F1040.000 E5.06324
G1 X101.925 Y70.175 E5.07710
G1 X102.313 Y70.175 E5.09016
G1 X103.313 Y70.175 F960.000 E5.12324
G1 X103.313 Y70.188 E5.12342
G1 X103.538 Y70.525 F880.000 E5.13709
G1 X103.538 Y71.125 E5.15668
G1 X103.538 Y72.125 F800.000 E5.18994
G1 X103.538 Y72.513 F720.000 E5.20311
G1 X103.313 Y72.863 E5.21697
G1 X103.125 Y72.863 E5.22320
G1 X102.125 Y72.863 E5.23983
G1 F1800.000 E0.23983
G92 E0
G1 X103.525 Y69.775 F7200.000
G1 F1800.000 E5.00000
G1 X103.938 Y70.413 F720.000 E5.01251
G1 X103.938 Y70.663 E5.01663
G1 X103.938 Y72.638 F1200.000 E5.08227
G1 X103.525 Y73.263 E5.10729
G1 X103.350 Y73.263 E5.11297
G1 X102.350 Y73.263 F1120.000 E5.14623
G1 X101.700 Y73.263 F1040.000 E5.16790
G1 X101.513 Y72.975 E5.17949
G1 X101.300 Y72.638 F960.000 E5.19292
G1 X101.300 Y72.038 E5.21275
G1 X101.300 Y71.038 F880.000 E5.24601
G1 X101.300 Y70.413 F800.000 E5.26681
G1 X101.500 Y70.100 E5.27927
G1 X101.700 Y69.775 F720.000 E5.29182
G1 X102.325 Y69.775 E5.31253
G1 X103.325 Y69.775 E5.32916
G1 X103.425 Y70.525
; perimeter_end
; perimeter_start
G1 F1800.000 E0.32916
G92 E0
G1 X90.063 Y82.850 F7200.000
G1 F1800.000 E5.00000
G1 X90.063 Y82.225 F1200.000 E5.02055
G1 X98.288 Y82.225 E5.29407
G1 X98.513 Y82.575 E5.30792
G1 X98.513 Y84.563 E5.37395
G1 X98.288 Y84.913 E5.38780
G1 X90.063 Y84.913 E5.66132
G1 X90.063 Y84.288 E5.68187
G1 X85.538 Y84.288 E5.83260
G1 X85.263 Y84.688 E5.84857
G1 X84.813 Y84.413 E5.86620
G1 X84.238 Y83.925 E5.89133
G1 X84.038 Y83.563 E5.90490
G1 X84.313 Y83.138 E5.92165
G1 X85.263 Y82.450 E5.96109
G1 X85.538 Y82.850 E5.97706
G1 X89.863 Y82.850 E6.12113
G1 F1800.000 E1.12113
G92 E0
G1 X89.663 Y82.450 F7200.000
G1 F1800.000 E5.00000
G1 X89.663 Y81.825 F1200.000 E5.02055
G1 X98.500 Y81.825 E5.31461
G1 X98.913 Y82.463 E5.33963
G1 X98.913 Y84.675 E5.41352
G1 X98.500 Y85.313 E5.43853
G1 X89.663 Y85.313 E5.73259
G1 X89.663 Y84.688 E5.75315
G1 X85.750 Y84.688 E5.88343
G1 X85.388 Y85.238 E5.90520
G1 X84.575 Y84.738 E5.93673
G1 X83.938 Y84.200 E5.96450
G1 X83.700 Y83.850 E5.97879
G1 X83.625 Y83.563 E5.98828
G1 X83.700 Y83.288 E5.99768
G1 X84.013 Y82.863 E6.01558
G1 X84.575 Y82.400 E6.03977
G1 X85.388 Y81.900 E6.07135
G1 X85.750 Y82.450 E6.09312
G1 X89.463 Y82.450 E6.21676
G1 X90.288 Y82.450
; perimeter_end
; infill_start
G1 X90.538 Y82.550
G1 X98.050 Y82.525 F1800.000 E6.49250
G1 X98.050 Y82.525
G1 X90.538 Y82.538 E6.76822
G1 X90.538 Y84.613 F7200.000
G1 X98.038 Y84.600 F1800.000 E7.04374
G1 X98.213 Y84.413
G1 X98.013 Y84.613 E7.05420
G1 X97.600 Y84.400 E7.07167
G1 X98.213 Y83.788 E7.10425
G1 X98.213 Y83.150 E7.12766
G1 X96.963 Y84.400 E7.19332
G1 X96.775 Y84.600
G1 X96.750 Y84.613 E7.19410
G1 X96.338 Y84.400
G1 X98.000 Y82.738 E7.28142
G1 X97.375 Y82.738 E7.30483
G1 X95.700 Y84.400 E7.39213
G1 X95.513 Y84.600
G1 X95.500 Y84.613 E7.39290
G1 X95.075 Y84.400
G1 X96.738 Y82.738 E7.48018
G1 X96.113 Y82.738 E7.50358
G1 X94.450 Y84.400 E7.59083
